wandering2025/agibot_x1_infer_ArmWalk/src/module/control_module/StateAction_record_6.csv
timestep,left_hip_pitch_joint_pos_diff,left_hip_roll_joint_pos_diff,left_hip_yaw_joint_pos_diff,left_knee_pitch_joint_pos_diff,left_ankle_pitch_joint_pos_diff,left_ankle_roll_joint_pos_diff,left_shoulder_pitch_joint_pos_diff,right_hip_pitch_joint_pos_diff,right_hip_roll_joint_pos_diff,right_hip_yaw_joint_pos_diff,right_knee_pitch_joint_pos_diff,right_ankle_pitch_joint_pos_diff,right_ankle_roll_joint_pos_diff,right_shoulder_pitch_joint_pos_diff,left_hip_pitch_joint_vel,left_hip_roll_joint_vel,left_hip_yaw_joint_vel,left_knee_pitch_joint_vel,left_ankle_pitch_joint_vel,left_ankle_roll_joint_vel,left_shoulder_pitch_joint_vel,right_hip_pitch_joint_vel,right_hip_roll_joint_vel,right_hip_yaw_joint_vel,right_knee_pitch_joint_vel,right_ankle_pitch_joint_vel,right_ankle_roll_joint_vel,right_shoulder_pitch_joint_vel,base_ang_vel_x,base_ang_vel_y,base_ang_vel_z,base_euler_x,base_euler_y,base_euler_z,left_hip_pitch_joint_action,left_hip_roll_joint_action,left_hip_yaw_joint_action,left_knee_pitch_joint_action,left_ankle_pitch_joint_action,left_ankle_roll_joint_action,left_shoulder_pitch_joint_action,right_hip_pitch_joint_action,right_hip_roll_joint_action,right_hip_yaw_joint_action,right_knee_pitch_joint_action,right_ankle_pitch_joint_action,right_ankle_roll_joint_action,right_shoulder_pitch_joint_action
0,0.221943,0.116919,-0.176759,0.487448,-0.160444,-0.022358,-0.058823,-0.086375,0.064477,-0.065614,0.001552,0.035960,-0.154829,-0.118265,0.125050,0.024089,-0.035444,0.121981,-0.038780,0.013744,0.039740,0.079326,-0.006905,-0.008746,-0.008746,-0.108145,0.255269,-0.022555,0.195331,-0.026923,-0.729078,0.034008,0.031272,0.249502,1.311901,0.541640,-0.492370,1.261968,-0.331268,0.055242,0.259974,0.452975,1.099719,0.014093,-0.323870,0.051044,-0.726680,-0.279225
1,0.247062,0.124397,-0.174266,0.508158,-0.166579,-0.018452,-0.050002,-0.070652,0.065819,-0.065230,-0.001516,0.011997,-0.108512,-0.121333,0.126584,0.041274,0.034830,0.114923,-0.032288,0.030312,0.044650,0.076871,0.013963,0.010280,-0.018566,-0.109613,0.233852,-0.016724,0.418297,-0.513871,-0.801052,0.037388,0.028639,0.242256,1.381350,0.467529,-0.550037,1.069965,-0.232368,0.114216,0.130775,-0.099856,0.535166,-0.327366,-0.460151,-0.172634,-0.621041,-0.013190
2,0.273140,0.132642,-0.165829,0.533085,-0.170678,-0.012024,-0.039264,-0.056271,0.072147,-0.062162,-0.006309,-0.009196,-0.079157,-0.124401,0.132108,0.040354,0.033602,0.112468,-0.020800,0.036181,0.059380,0.069199,0.037285,0.005984,-0.023783,-0.119171,0.071452,-0.018873,0.177321,-0.224151,-0.804948,0.039081,0.024313,0.233262,1.251135,0.493123,-0.576784,1.069012,-0.190744,0.088197,0.117999,0.210370,0.600349,-0.367712,-0.364637,-0.151585,-0.604668,-0.042430
3,0.299027,0.138970,-0.166404,0.554178,-0.174743,-0.001648,-0.026033,-0.044382,0.076749,-0.068298,-0.007459,-0.029652,-0.094110,-0.132839,0.130574,0.028079,-0.027158,0.102342,-0.011535,0.039765,0.062141,0.057231,0.012735,-0.058766,0.003222,-0.085487,-0.121998,-0.050787,-0.411580,-0.657983,-0.812820,0.038512,0.021185,0.226594,1.091097,0.177974,-0.654361,1.000262,-0.036469,0.042193,-0.106048,-0.439847,1.310061,-0.175984,-0.698858,-0.461602,-0.726449,0.136944
4,0.325296,0.142997,-0.186346,0.572778,-0.172724,0.003258,-0.016829,-0.033836,0.075982,-0.095527,-0.001707,-0.035041,-0.118453,-0.141084,0.131187,0.017031,-0.113082,0.086077,-0.000385,0.049260,0.041274,0.052015,-0.007211,-0.160647,0.034830,-0.015665,-0.122746,-0.033909,-0.982582,-0.648062,0.685703,0.030174,0.012108,0.225362,0.493311,0.038031,-0.526503,1.147656,-0.142687,0.060588,0.410250,-0.959643,1.663330,0.689276,-1.142036,-0.664355,-0.924418,-0.541162
5,0.351950,0.146065,-0.206480,0.587350,-0.172697,0.015727,-0.009734,-0.023673,0.073681,-0.130234,0.005963,-0.030370,-0.132909,-0.144343,0.133949,0.016111,-0.087612,0.068586,0.014531,0.046434,0.037285,0.050787,-0.011201,-0.167398,0.036057,0.025566,-0.054102,-0.010587,-0.371466,0.135529,0.534095,0.022651,0.006555,0.232374,1.103925,0.640239,-0.427865,1.191549,-0.052100,0.050831,-0.021370,0.614452,1.664803,0.126921,-0.705366,-0.520179,-0.866123,-0.226714
6,0.378220,0.149516,-0.214150,0.597897,-0.166550,0.022752,0.000237,-0.014660,0.073106,-0.151135,0.010948,-0.032531,-0.142086,-0.145302,0.127812,0.019486,-0.022555,0.056004,0.031507,0.035767,0.049560,0.041274,0.003529,-0.067665,0.022248,-0.009195,0.005983,-0.009360,-0.107217,0.059219,0.320651,0.020914,0.009955,0.237336,1.174476,0.438201,-0.368882,1.235273,-0.252688,0.042498,0.477771,0.387901,1.132801,0.287558,-0.652828,-0.391123,-0.827370,-0.608053
7,0.401422,0.154310,-0.215684,0.608251,-0.160448,0.029392,0.010591,-0.008141,0.076174,-0.150176,0.011907,-0.038743,-0.135228,-0.147411,0.110627,0.023783,-0.001995,0.043115,0.047586,0.021458,0.049867,0.029613,0.018566,0.026544,-0.002915,-0.059542,0.028847,-0.009666,0.011100,-0.177311,0.261407,0.020811,0.009796,0.239769,1.290788,0.472969,-0.431458,1.126229,-0.180192,0.084741,0.225392,0.238582,1.014478,-0.048193,-0.663835,-0.628009,-0.765944,-0.261376
8,0.421172,0.158529,-0.214150,0.614579,-0.148185,0.030182,0.018261,-0.002964,0.081351,-0.142506,0.009798,-0.057609,-0.122644,-0.149712,0.095283,0.020714,0.011508,0.033295,0.058870,0.007780,0.033295,0.025931,0.028386,0.034830,-0.014883,-0.109887,0.068802,-0.013349,-0.143478,0.226759,-0.016588,0.017619,0.009533,0.240881,1.102602,0.363041,-0.581665,1.081002,-0.145784,0.033277,0.226648,0.505007,1.513642,0.340538,-0.548797,-0.465584,-0.850954,-0.364276
9,0.439005,0.162172,-0.211466,0.620331,-0.138013,0.030402,0.023822,0.002022,0.085761,-0.141356,0.007688,-0.076605,-0.108917,-0.152589,0.086077,0.016418,0.013963,0.022555,0.063519,-0.004381,0.027158,0.025624,0.016418,-0.010587,-0.002915,-0.097503,0.081915,-0.015190,0.064558,-0.008996,-0.117811,0.017574,0.012271,0.240542,1.237389,0.261329,-0.686291,0.884288,-0.049512,0.053481,0.145880,0.128713,1.304104,0.264095,-0.658956,-0.449342,-0.759080,-0.262626
10,0.455111,0.164857,-0.212424,0.623591,-0.127820,0.031212,0.028616,0.007966,0.086145,-0.150368,0.009414,-0.089185,-0.099099,-0.155465,0.079019,0.011814,-0.017031,0.012735,0.062680,-0.008506,0.020407,0.032375,-0.001995,-0.055083,0.012735,-0.057794,0.027253,-0.012735,-0.143104,-0.205732,0.220442,0.017572,0.011526,0.240279,1.097430,0.313307,-0.546592,1.002548,-0.073771,0.061748,0.203589,0.131073,1.292166,0.249979,-0.716512,-0.538891,-0.814884,-0.364144
11,0.470260,0.166774,-0.217793,0.624167,-0.115504,0.027397,0.032259,0.015445,0.085570,-0.160338,0.013057,-0.095247,-0.104214,-0.156999,0.074416,0.010587,-0.025010,-0.001381,0.058966,-0.009299,0.016111,0.040967,-0.001995,-0.041581,0.018873,-0.018797,-0.035403,-0.006598,0.122612,0.144809,0.475036,0.018410,0.009947,0.244398,1.048266,0.367980,-0.432902,0.957753,-0.130087,0.062390,0.388356,0.459470,0.922515,0.330072,-0.627478,-0.417502,-0.713549,-0.563498
12,0.484449,0.168883,-0.220861,0.622441,-0.105235,0.026002,0.035327,0.024456,0.086145,-0.163598,0.016509,-0.097081,-0.116987,-0.157766,0.070427,0.009973,-0.009666,-0.010587,0.056340,-0.009256,0.015804,0.046184,0.004756,-0.005984,0.015497,0.006086,-0.047075,-0.003222,0.299272,0.194724,0.298687,0.022670,0.011542,0.248543,1.228793,0.506514,-0.422779,0.883530,-0.082402,0.072403,0.187477,0.595215,0.811488,-0.027484,-0.504551,-0.371862,-0.626341,-0.332916
13,0.497872,0.170417,-0.220861,0.619181,-0.092845,0.021175,0.037819,0.033660,0.087295,-0.162831,0.018426,-0.092566,-0.121266,-0.158533,0.065517,0.006905,0.002915,-0.019486,0.055223,-0.006306,0.013349,0.044957,0.005984,0.004143,0.007211,0.008790,-0.024672,-0.006905,0.175338,0.063050,0.177304,0.025905,0.012539,0.250842,1.033871,0.328046,-0.368781,0.909665,-0.141749,0.048725,0.344483,0.433333,0.888284,0.169490,-0.496609,-0.358580,-0.626780,-0.480120
14,0.509760,0.171376,-0.220861,0.614003,-0.082518,0.020365,0.040504,0.042673,0.087487,-0.163023,0.018810,-0.094740,-0.121314,-0.161025,0.056618,0.005063,-0.001074,-0.027465,0.053354,-0.000477,0.012121,0.045263,-0.000767,-0.003529,-0.000767,-0.014339,0.021379,-0.012735,0.008155,-0.017576,0.086874,0.027157,0.013430,0.252272,1.090200,0.396690,-0.401384,0.894618,-0.018813,0.060397,0.103848,0.326902,1.105447,0.041678,-0.680432,-0.548551,-0.666557,-0.262095
15,0.519923,0.172335,-0.220861,0.607292,-0.074250,0.023370,0.042613,0.052069,0.086720,-0.165132,0.018426,-0.101173,-0.114293,-0.163518,0.049253,0.005370,0.001995,-0.035444,0.048980,0.007269,0.010587,0.048639,-0.005370,-0.013656,-0.001995,-0.043442,0.047923,-0.012735,-0.098712,-0.060752,-0.086326,0.027498,0.012818,0.252286,1.037298,0.332830,-0.443999,0.893070,0.026665,0.084791,0.098966,0.204151,1.277889,0.200740,-0.776341,-0.575488,-0.720121,-0.305942
16,0.528744,0.173102,-0.219902,0.599431,-0.065954,0.025771,0.044339,0.062040,0.085186,-0.168009,0.018043,-0.111684,-0.103362,-0.166203,0.041888,0.001995,0.002915,-0.041581,0.042453,0.011827,0.008439,0.049560,-0.007211,-0.013349,-0.001074,-0.064464,0.041389,-0.012735,-0.148709,0.164921,-0.255212,0.027025,0.014143,0.250600,1.139075,0.490502,-0.456193,0.802085,0.124708,0.115999,-0.044211,0.694985,1.333917,0.053507,-0.619553,-0.440184,-0.715304,-0.276222
17,0.535839,0.172910,-0.221053,0.590227,-0.057623,0.026975,0.045106,0.071435,0.083844,-0.170885,0.017851,-0.121944,-0.097176,-0.168312,0.032682,-0.001995,-0.009360,-0.048332,0.037377,0.016860,0.001074,0.045877,-0.005370,-0.014883,-0.000767,-0.054691,0.003892,-0.010587,-0.236188,0.046437,-0.331396,0.026530,0.015213,0.247325,1.151761,0.426543,-0.443089,0.758632,0.153333,0.153124,-0.066283,0.589267,1.430922,0.030411,-0.612459,-0.449175,-0.736366,-0.283493
18,0.541207,0.172718,-0.223929,0.579489,-0.051374,0.032185,0.044914,0.079873,0.083461,-0.174528,0.017851,-0.132201,-0.105477,-0.169079,0.024089,-0.000153,-0.013656,-0.055390,0.036195,0.022237,-0.001688,0.041274,-0.000153,-0.021634,-0.001074,-0.033823,-0.016705,0.001381,-0.297058,0.053781,0.082447,0.024409,0.014993,0.246263,1.000873,0.270086,-0.442050,0.674610,0.155100,0.177378,0.075506,0.416659,1.429001,0.204188,-0.656780,-0.494738,-0.710253,-0.415263
19,0.545043,0.172718,-0.225080,0.568751,-0.043025,0.035351,0.044723,0.088118,0.084036,-0.181048,0.017659,-0.134080,-0.105701,-0.167929,0.017952,0.001381,-0.002608,-0.061835,0.042034,0.025553,-0.002302,0.041274,0.004143,-0.036057,-0.001074,-0.009193,-0.004202,0.005677,-0.352769,0.137596,0.215556,0.021817,0.014589,0.247974,0.959474,0.304992,-0.445980,0.570135,0.255095,0.191551,-0.106747,0.575450,1.518664,0.059369,-0.597045,-0.531385,-0.676082,-0.285295
20,0.547918,0.172910,-0.224696,0.555136,-0.032561,0.039044,0.044531,0.096555,0.085378,-0.187951,0.017468,-0.134186,-0.101728,-0.166778,0.012735,0.000153,0.005984,-0.070734,0.051103,0.031058,-0.000153,0.043115,0.008132,-0.032068,-0.000460,-0.003367,0.023398,0.006905,-0.297423,0.175873,0.100771,0.019355,0.015283,0.249776,0.906841,0.226010,-0.459279,0.435107,0.285201,0.200022,-0.037697,0.626516,1.396598,0.035097,-0.507841,-0.442039,-0.594503,-0.351308
21,0.549645,0.172718,-0.223162,0.538070,-0.024213,0.050862,0.044723,0.104991,0.087295,-0.193320,0.017468,-0.136348,-0.095396,-0.165628,0.006598,-0.001074,0.008132,-0.080554,0.061306,0.038445,-0.000153,0.042808,0.009973,-0.025624,-0.000153,-0.025828,0.028165,0.005370,-0.296510,0.127632,0.014282,0.016783,0.016017,0.250305,0.885606,0.233801,-0.415699,0.321528,0.349109,0.199661,-0.153442,0.700992,1.344433,-0.173909,-0.411360,-0.416073,-0.531758,-0.249018
22,0.549645,0.172527,-0.222012,0.522155,-0.009568,0.056924,0.044531,0.113429,0.089213,-0.198497,0.017468,-0.146769,-0.092139,-0.165053,-0.001995,-0.001074,0.005370,-0.090374,0.074105,0.043588,-0.001688,0.042502,0.009053,-0.026237,0.000460,-0.057898,0.027049,0.001074,-0.262017,0.132586,-0.134797,0.014233,0.017097,0.249791,0.775004,0.105319,-0.431172,0.163547,0.394345,0.203200,-0.169410,0.613407,1.232845,-0.209559,-0.323491,-0.387463,-0.424224,-0.201734
23,0.548111,0.172143,-0.221245,0.502597,0.007177,0.065201,0.043764,0.122058,0.090747,-0.203483,0.017468,-0.159089,-0.088483,-0.165244,-0.010587,-0.002608,0.004756,-0.102035,0.086984,0.049300,-0.004450,0.043115,0.008439,-0.026237,0.000767,-0.063321,0.022470,-0.000460,-0.184974,0.223542,-0.247060,0.012470,0.018965,0.247857,0.717068,0.063708,-0.410136,-0.048724,0.441384,0.152214,-0.212070,0.756075,0.961641,-0.369145,-0.097921,-0.207748,-0.249555,-0.145350
24,0.544850,0.171376,-0.219902,0.480354,0.025970,0.074459,0.042038,0.130878,0.092472,-0.210002,0.018043,-0.169421,-0.084196,-0.165053,-0.018566,-0.004450,0.007211,-0.114616,0.100927,0.049060,-0.010280,0.044957,0.009053,-0.035137,0.002608,-0.040726,0.027956,0.001381,-0.140977,0.141303,-0.203450,0.010972,0.020681,0.245413,0.560008,-0.039030,-0.355532,-0.130899,0.383066,0.114038,-0.204953,0.629761,0.700749,-0.539548,0.017578,-0.041332,-0.110376,-0.118809
25,0.539865,0.169842,-0.217793,0.452550,0.044685,0.088026,0.039162,0.140082,0.094199,-0.217864,0.019193,-0.171521,-0.074908,-0.164286,-0.028079,-0.008439,0.012428,-0.131494,0.113625,0.044754,-0.015497,0.047412,0.008746,-0.042195,0.006291,-0.018323,0.035576,0.004450,-0.068467,0.176927,-0.034216,0.009668,0.021366,0.244326,0.356735,-0.116077,-0.287531,-0.152928,0.270437,0.082024,-0.091810,0.558774,0.401826,-0.632588,0.084180,0.255255,0.046906,-0.165532
26,0.532962,0.167349,-0.214725,0.423595,0.069545,0.092564,0.035519,0.149861,0.095924,-0.227835,0.021302,-0.175826,-0.070190,-0.162751,-0.036978,-0.014883,0.015190,-0.151441,0.124156,0.029732,-0.020100,0.050173,0.007211,-0.053856,0.012121,-0.015992,0.036080,0.008439,-0.092601,0.218263,0.113443,0.008791,0.023159,0.244760,0.173724,-0.167214,-0.228587,-0.121003,0.181914,0.107200,-0.084710,0.468067,0.189578,-0.734074,0.129712,0.595041,0.189357,-0.117112
27,0.524142,0.163514,-0.212041,0.390423,0.094213,0.096337,0.030725,0.160024,0.096499,-0.240107,0.024563,-0.177991,-0.059332,-0.160067,-0.046798,-0.021634,0.014576,-0.172001,0.129291,0.009336,-0.024396,0.051094,0.001995,-0.064289,0.018873,-0.021368,0.044907,0.015190,-0.130254,0.089409,0.120179,0.007536,0.024900,0.246000,0.027891,-0.247876,-0.199502,-0.069413,0.054710,0.115672,-0.066878,0.147380,-0.006368,-0.815176,0.064091,0.801924,0.317010,-0.026307
28,0.513212,0.157762,-0.208781,0.353798,0.116651,0.098542,0.026123,0.169995,0.096116,-0.253146,0.029165,-0.182205,-0.049884,-0.156232,-0.058152,-0.030841,0.017952,-0.189493,0.123438,-0.014173,-0.023783,0.049867,-0.003529,-0.066131,0.024703,-0.025801,0.041611,0.021634,-0.225145,0.080022,0.109748,0.005765,0.025851,0.247160,-0.159007,-0.381293,-0.202135,0.010868,0.014798,0.222878,-0.106163,0.019551,-0.123146,-0.804143,0.122457,0.919485,0.433386,0.024821
29,0.499598,0.150283,-0.203988,0.317558,0.143097,0.087299,0.021329,0.179391,0.094199,-0.266185,0.034917,-0.186387,-0.043016,-0.151246,-0.071961,-0.040660,0.027465,-0.204223,0.104094,-0.036725,-0.024703,0.045570,-0.012428,-0.064596,0.030534,-0.018239,0.034468,0.025931,-0.342150,0.083988,0.112703,0.002776,0.026787,0.248236,-0.213019,-0.608419,-0.322691,0.019980,-0.029641,0.395851,-0.200357,-0.280736,-0.209438,-0.636859,0.219771,0.786423,0.486573,0.093499
30,0.482915,0.140504,-0.197468,0.270770,0.157207,0.081402,0.015385,0.187253,0.090172,-0.279607,0.041820,-0.190586,-0.041285,-0.145877,-0.088225,-0.052015,0.034216,-0.214043,0.078392,-0.043886,-0.030841,0.036671,-0.022862,-0.069813,0.035444,-0.004636,0.029004,0.028386,-0.498921,0.082251,0.272353,-0.001525,0.027548,0.249927,-0.244928,-0.968320,-0.585009,0.032817,-0.175579,0.625389,-0.288086,-0.831553,-0.253147,-0.171630,0.362216,0.355753,0.365181,0.141637
31,0.463165,0.128041,-0.190756,0.227435,0.169302,0.071283,0.009441,0.192430,0.084036,-0.293605,0.048723,-0.188639,-0.033764,-0.139550,-0.102955,-0.066744,0.032989,-0.218953,0.041899,-0.031516,-0.029306,0.020714,-0.035137,-0.069506,0.038819,0.009027,0.029772,0.033295,-0.617385,-0.039850,0.183843,-0.007449,0.027207,0.252763,-0.135463,-1.093343,-0.810889,-0.067706,-0.303253,0.813566,-0.434771,-1.005467,-0.209851,0.240659,0.614298,0.019902,0.123105,0.280236
32,0.441114,0.112125,-0.185771,0.187359,0.169292,0.074584,0.003113,0.193772,0.074832,-0.304535,0.057352,-0.186715,-0.025842,-0.132455,-0.113082,-0.086077,0.021328,-0.221714,0.000903,0.004945,-0.032989,-0.000460,-0.050173,-0.041581,0.044957,0.003999,0.037850,0.036978,-0.736081,0.030626,0.161535,-0.014401,0.026508,0.254115,-0.052403,-0.985910,-0.727944,-0.146000,-0.191655,0.860348,-0.485990,-0.842416,-0.234228,0.379977,0.787026,-0.197728,-0.012460,0.363443
33,0.417528,0.091799,-0.184237,0.138846,0.165282,0.081628,-0.004174,0.190321,0.062943,-0.302426,0.069049,-0.188804,-0.017388,-0.124209,-0.119833,-0.107865,-0.003529,-0.221407,-0.040122,0.065269,-0.036978,-0.023783,-0.063369,0.035444,0.059380,-0.017357,0.047199,0.042808,-0.743008,-0.145945,0.106288,-0.022088,0.024721,0.255791,0.061566,-0.840151,-0.607224,-0.204592,-0.133677,0.821736,-0.469061,-0.715060,-0.236701,0.372973,0.861948,-0.291919,-0.049553,0.443299
34,0.393176,0.068214,-0.187880,0.095319,0.155266,0.100750,-0.012036,0.182651,0.048945,-0.284977,0.083621,-0.194867,-0.008622,-0.114814,-0.120754,-0.119219,-0.009360,-0.212815,-0.037093,0.083884,-0.041888,-0.044036,-0.070734,0.111241,0.079940,-0.037255,0.042973,0.048946,-0.784288,0.069549,-0.102288,-0.029922,0.023064,0.255820,-0.035544,-0.770673,-0.525680,-0.147812,0.047223,0.766315,-0.534398,-0.529226,-0.210591,0.332578,0.915916,-0.364445,-0.049902,0.528659
35,0.373042,0.048080,-0.176184,0.064255,0.169339,0.089989,-0.022582,0.172488,0.037632,-0.253337,0.103947,-0.202879,-0.000908,-0.105418,-0.095590,-0.092215,0.105103,-0.131494,0.096664,-0.086170,-0.054776,-0.052628,-0.043422,0.181514,0.113696,-0.049760,0.033484,0.043115,-0.221149,-0.268341,-0.632457,-0.037089,0.022044,0.251957,0.286583,-0.738505,-0.782746,-0.320482,-0.059846,0.834129,-0.778621,-0.307360,-0.239321,0.291803,0.928041,-0.412515,-0.074302,0.733341
36,0.355018,0.036576,-0.140518,0.046422,0.189384,0.072987,-0.034278,0.161558,0.032838,-0.196388,0.129450,-0.212834,-0.001703,-0.101775,-0.091294,-0.040047,0.191334,-0.076564,0.100310,-0.079743,-0.060300,-0.054470,-0.017338,0.326051,0.129960,-0.040398,0.000485,0.011814,1.308178,-0.525596,-1.710933,-0.025056,0.013657,0.241692,1.081243,-0.903181,-1.323976,-0.872843,-0.253218,1.129899,-0.842248,0.193372,-0.809124,0.185618,0.773079,-0.316209,-0.061515,0.752171
37,0.336034,0.032357,-0.103318,0.034342,0.205359,0.069468,-0.047126,0.149286,0.029578,-0.131768,0.157062,-0.216810,-0.001393,-0.097173,-0.094363,-0.016724,0.168626,-0.064596,0.062741,0.010710,-0.066131,-0.065824,-0.020714,0.301501,0.140087,-0.027574,-0.019084,0.035137,0.455960,0.797311,-0.831201,-0.021267,0.023391,0.228399,-0.681598,-1.782292,-1.252519,-0.148362,0.505756,1.229112,-0.801616,0.049584,-0.611298,0.234596,1.041119,-0.395975,0.040603,0.454124
38,0.317627,0.028713,-0.088362,0.020152,0.211284,0.086253,-0.059398,0.134905,0.021141,-0.082871,0.184866,-0.220760,-0.007732,-0.089694,-0.090680,-0.021941,0.031454,-0.074416,0.013983,0.109016,-0.063062,-0.074109,-0.051094,0.218646,0.140700,-0.019936,-0.036978,0.035137,-0.458565,0.586495,-0.404700,-0.026830,0.034634,0.221634,-0.713862,-1.156866,-0.695079,0.133101,0.720792,0.872905,-0.894894,-0.769199,-0.309228,0.269890,1.129649,-0.541529,-0.001915,0.741960
39,0.301136,0.022577,-0.098908,0.001553,0.205253,0.118620,-0.072245,0.118414,0.008103,-0.061971,0.213053,-0.224700,-0.016007,-0.082792,-0.076564,-0.033602,-0.075337,-0.088532,-0.046126,0.176983,-0.062141,-0.084850,-0.073803,0.064596,0.141007,-0.011563,-0.027716,0.032682,0.010123,0.107649,0.186316,-0.027937,0.037049,0.219324,-0.436413,-1.269223,-0.564611,0.059039,0.555648,0.919816,-0.520181,-0.902628,-0.142347,0.440344,0.955541,-0.443408,-0.037024,0.538014
40,0.286755,0.016633,-0.110989,-0.013021,0.193324,0.145567,-0.086051,0.101924,-0.008772,-0.047973,0.241624,-0.224658,-0.018155,-0.078190,-0.071961,-0.024703,-0.043422,-0.074416,-0.060990,0.097820,-0.072575,-0.079633,-0.086998,0.077792,0.144997,-0.005164,-0.016593,0.023476,-0.045604,-0.275746,0.252704,-0.025940,0.036840,0.222480,0.334079,-1.022718,-0.736838,-0.364569,0.145372,0.986138,-0.571910,-0.736785,-0.030432,0.447605,0.989076,-0.474203,-0.034170,0.689365
41,0.271414,0.015099,-0.106961,-0.023375,0.189364,0.147628,-0.101775,0.086200,-0.026604,-0.029182,0.271154,-0.224635,-0.018350,-0.073204,-0.079940,-0.001995,0.046184,-0.043115,0.002794,-0.035295,-0.079019,-0.080554,-0.088532,0.102648,0.148986,-0.003345,-0.001821,0.027158,0.177341,-0.344452,0.863899,-0.023125,0.032360,0.228649,0.386650,-1.729696,-0.552169,-0.575405,-0.093184,1.023109,0.074550,-0.698035,0.016595,0.635889,0.959309,-0.281845,0.012787,0.128756
42,0.254349,0.014908,-0.092580,-0.029511,0.193340,0.130394,-0.117115,0.068751,-0.044054,-0.005212,0.301450,-0.226644,-0.019941,-0.066109,-0.086691,-0.001074,0.068586,-0.022862,0.025468,-0.097188,-0.074109,-0.090374,-0.086384,0.128426,0.152055,-0.001998,0.010907,0.042502,-0.465089,0.167317,0.666162,-0.023774,0.030655,0.236870,-0.558800,-1.255260,-0.447247,0.023788,0.575727,0.862444,-0.472173,-0.797205,-0.174562,0.487787,1.134681,-0.469619,0.025612,0.522315
43,0.237283,0.013374,-0.087212,-0.033538,0.197334,0.109630,-0.130345,0.049384,-0.060736,0.022975,0.332130,-0.226657,-0.016429,-0.055755,-0.082702,-0.013656,0.008132,-0.023783,0.014309,-0.088058,-0.060607,-0.098966,-0.081781,0.143155,0.153896,-0.002198,0.013422,0.052935,-0.905990,0.156856,0.815751,-0.033034,0.034847,0.244102,-0.513722,-0.526182,0.136226,0.114770,0.641642,0.416083,-0.275233,-1.077171,-0.322598,0.462448,1.084204,-0.518057,-0.015942,0.525546
44,0.222326,0.007621,-0.090087,-0.039674,0.195357,0.098611,-0.140509,0.028292,-0.075884,0.052121,0.363002,-0.226674,-0.013306,-0.044825,-0.071654,-0.032068,-0.016111,-0.030227,-0.026070,-0.034729,-0.050787,-0.108172,-0.071654,0.146224,0.153282,0.000296,0.015899,0.053856,-0.816136,0.038953,0.759872,-0.041678,0.035402,0.251893,-0.298775,-0.417835,0.184912,0.092519,0.554425,0.390694,-0.220441,-0.978420,-0.229191,0.470196,1.021588,-0.502019,-0.003127,0.512317
45,0.208903,0.000910,-0.087595,-0.045235,0.185386,0.104481,-0.153356,0.005473,-0.087964,0.081459,0.390423,-0.226691,-0.010964,-0.034662,-0.064596,-0.032375,0.033909,-0.030534,-0.053700,0.048192,-0.070427,-0.116458,-0.054776,0.146838,0.150213,0.002807,0.015874,0.050173,-0.200701,-0.238993,0.537997,-0.045284,0.035955,0.258629,0.151417,-0.726300,0.104724,-0.204465,0.256250,0.588708,-0.153529,-0.863931,-0.097242,0.451257,1.113299,-0.444224,0.018644,0.457739
46,0.196632,-0.003692,-0.070529,-0.050987,0.175404,0.116977,-0.168121,-0.018879,-0.097552,0.108879,0.419952,-0.224717,-0.005073,-0.024691,-0.061835,-0.018873,0.104490,-0.021021,-0.048819,0.058010,-0.070427,-0.123209,-0.046491,0.133949,0.147758,0.001674,0.014310,0.051708,-0.108457,-0.214391,0.194508,-0.046276,0.032068,0.262227,0.193034,-1.087911,-0.016059,-0.347723,0.273168,0.665691,-0.180574,-0.865753,-0.149369,0.457497,1.156539,-0.380011,0.065803,0.377886
47,0.183785,-0.005801,-0.047327,-0.053288,0.169410,0.120610,-0.179434,-0.044382,-0.106564,0.132848,0.452933,-0.224721,-0.003315,-0.013378,-0.063369,-0.006291,0.132108,-0.007518,-0.026644,0.005894,-0.049560,-0.127198,-0.044036,0.111241,0.148065,0.000264,0.007240,0.059073,0.046092,-0.202744,-0.272015,-0.048186,0.029287,0.262054,0.047562,-0.861949,-0.377389,-0.384947,0.471181,0.515825,-0.714766,-0.703930,-0.320945,0.264046,1.381592,-0.559173,0.102013,0.774291
48,0.171321,-0.006569,-0.020290,-0.053863,0.163374,0.119108,-0.187295,-0.070077,-0.114809,0.151639,0.479011,-0.224721,-0.002925,-0.001106,-0.062141,-0.004756,0.114616,-0.002608,-0.025727,-0.025253,-0.034216,-0.128426,-0.039740,0.087612,0.144076,-0.000763,-0.001410,0.061528,0.216017,0.194704,-0.486495,-0.046363,0.028449,0.258212,-0.470255,-1.164018,-0.214300,-0.170420,0.589676,0.526187,-0.490416,-0.900782,-0.462826,0.360273,1.327387,-0.478038,0.082583,0.492082
49,0.159240,-0.007911,-0.003033,-0.054439,0.155300,0.112208,-0.193815,-0.095771,-0.122096,0.165445,0.506815,-0.224720,-0.003315,0.011358,-0.059073,-0.007825,0.071961,-0.003836,-0.045043,-0.027439,-0.035137,-0.129039,-0.033909,0.061528,0.138552,0.000482,-0.000634,0.064596,0.353923,0.086949,-0.752038,-0.042594,0.030583,0.251781,-0.289751,-1.266567,-0.617381,-0.254283,0.656917,0.817429,-0.954457,-0.754513,-0.391307,0.296377,1.403954,-0.583820,0.104489,0.882853
50,0.148119,-0.010020,0.005596,-0.054822,0.145211,0.108539,-0.201677,-0.121082,-0.127849,0.175033,0.533852,-0.224721,-0.002729,0.024206,-0.055390,-0.010894,0.034830,0.000460,-0.067431,-0.005045,-0.039126,-0.125971,-0.025931,0.042195,0.134256,-0.000686,0.004414,0.064289,0.322998,-0.153676,-0.711116,-0.039155,0.030595,0.244491,-0.029793,-1.458403,-0.443986,-0.409072,0.346937,0.906917,-0.529516,-1.016587,-0.283515,0.449839,1.278741,-0.445365,0.064332,0.569291
51,0.136806,-0.011746,0.010965,-0.053672,0.131064,0.113142,-0.209539,-0.145818,-0.132259,0.182320,0.559930,-0.226699,-0.003745,0.036861,-0.056925,-0.006598,0.027772,0.008746,-0.068811,0.031662,-0.040660,-0.121368,-0.020100,0.037285,0.129346,-0.004441,0.008067,0.064289,0.478576,-0.178911,-0.702309,-0.035361,0.029337,0.237429,-0.002894,-1.468978,-0.788480,-0.513267,0.348991,0.977923,-0.849168,-0.772664,-0.271758,0.393335,1.357056,-0.505110,0.077583,0.799544
52,0.125301,-0.012321,0.017293,-0.050795,0.118980,0.126272,-0.217400,-0.169403,-0.135710,0.189606,0.585241,-0.226699,0.000741,0.050091,-0.056925,-0.001688,0.033909,0.017645,-0.051886,0.063384,-0.039433,-0.117071,-0.015497,0.033295,0.125050,-0.008089,0.012796,0.064596,0.328428,-0.281991,-0.478602,-0.031697,0.028268,0.231415,0.019495,-1.304235,-0.550334,-0.520098,0.218956,0.907339,-0.548438,-1.028038,-0.258537,0.482054,1.263912,-0.428167,0.057248,0.587599
53,0.114754,-0.012321,0.023621,-0.046961,0.113017,0.135805,-0.225645,-0.192222,-0.138395,0.194591,0.608635,-0.230628,0.000850,0.061789,-0.051094,-0.000153,0.030534,0.019486,-0.026733,0.037652,-0.041888,-0.113082,-0.013042,0.021634,0.111855,-0.012795,0.020198,0.055390,0.154085,-0.199620,-0.210058,-0.030473,0.026222,0.227998,-0.174002,-1.270303,-0.508968,-0.366284,0.289717,0.877914,-0.567427,-0.981895,-0.256024,0.505486,1.288590,-0.465007,0.054646,0.606572
54,0.105359,-0.012513,0.027839,-0.043701,0.108956,0.138402,-0.233891,-0.214656,-0.140887,0.197084,0.631837,-0.232579,0.006840,0.071184,-0.043422,-0.000460,0.014883,0.015190,-0.015064,-0.005195,-0.038819,-0.112161,-0.013042,0.009360,0.101421,-0.015154,0.025638,0.045570,0.069666,-0.293164,-0.045397,-0.029846,0.024717,0.226663,-0.030202,-1.143740,-0.471157,-0.439263,0.163229,0.860558,-0.481358,-0.987265,-0.211570,0.524445,1.229323,-0.436948,0.052295,0.579356
55,0.097689,-0.012513,0.029182,-0.041783,0.106912,0.130239,-0.241944,-0.236899,-0.143572,0.198235,0.648711,-0.234522,0.013988,0.080388,-0.037899,-0.000153,0.003222,0.007518,-0.026282,-0.027481,-0.040967,-0.111855,-0.013656,0.006905,0.090987,-0.014429,0.023190,0.046798,-0.073813,-0.294777,0.255263,-0.030586,0.021076,0.227982,0.060404,-1.152437,-0.271352,-0.478438,-0.035148,0.822244,-0.215386,-1.058452,-0.220309,0.587646,1.228622,-0.385489,0.025481,0.403199
56,0.090594,-0.012513,0.029182,-0.041016,0.098731,0.126111,-0.248847,-0.259334,-0.146065,0.199193,0.666352,-0.236457,0.018208,0.090359,-0.035137,0.000153,0.001074,0.002915,-0.049721,-0.012984,-0.030534,-0.110627,-0.011508,0.002915,0.075030,-0.012867,0.020944,0.052015,-0.104810,-0.228707,0.460666,-0.032217,0.018292,0.231300,-0.039973,-1.038020,-0.303883,-0.452554,-0.056013,0.784323,-0.295630,-1.008379,-0.231897,0.551701,1.231074,-0.398621,0.023989,0.456138
57,0.083882,-0.012513,0.029948,-0.040825,0.086491,0.128328,-0.253066,-0.281386,-0.148366,0.199002,0.679774,-0.238381,0.021838,0.101289,-0.032375,0.000460,0.006905,-0.000153,-0.061198,0.012158,-0.017952,-0.110013,-0.011508,-0.002302,0.063676,-0.009505,0.016378,0.055697,-0.035320,-0.022670,0.427883,-0.033484,0.016651,0.236191,-0.260208,-1.208835,-0.192764,-0.372282,-0.013233,0.789377,-0.213430,-1.056644,-0.303943,0.564845,1.205527,-0.336487,0.014577,0.304193
58,0.077746,-0.012513,0.033400,-0.040825,0.076310,0.130771,-0.256326,-0.303245,-0.150859,0.198810,0.690704,-0.240297,0.021777,0.112027,-0.029920,0.000460,0.024396,0.001074,-0.051148,0.014587,-0.017338,-0.108786,-0.012428,0.000153,0.051094,-0.003234,0.004514,0.052322,0.042864,-0.016974,0.228114,-0.033775,0.017327,0.239466,-0.247031,-1.246169,-0.371670,-0.391998,0.010646,0.820206,-0.414073,-1.025065,-0.270579,0.521712,1.221145,-0.376892,0.025500,0.456454
59,0.071611,-0.012321,0.041070,-0.040249,0.068088,0.133642,-0.259969,-0.324338,-0.153351,0.199960,0.698374,-0.240297,0.019838,0.120656,-0.030227,0.000460,0.043729,0.003222,-0.028576,-0.005526,-0.017338,-0.103876,-0.012428,0.010587,0.038819,0.005421,-0.009048,0.039740,0.148278,0.032616,0.033006,-0.033069,0.016930,0.240746,-0.251500,-1.409199,-0.354225,-0.468027,-0.086392,0.853782,-0.339065,-1.066439,-0.300334,0.531922,1.189528,-0.309574,0.012976,0.340987
60,0.065091,-0.012321,0.050849,-0.039482,0.066051,0.127238,-0.262270,-0.344280,-0.155461,0.203412,0.704318,-0.238381,0.016209,0.126217,-0.033602,0.000153,0.047718,0.005370,-0.020540,-0.014115,-0.008132,-0.098045,-0.009666,0.016724,0.025010,0.012015,-0.018600,0.023476,0.210479,0.137878,-0.108410,-0.031550,0.017486,0.240293,-0.346484,-1.515773,-0.439694,-0.474199,-0.059754,0.889259,-0.462824,-1.055861,-0.318364,0.501484,1.191612,-0.290252,0.010415,0.378681
61,0.057805,-0.012513,0.058136,-0.037948,0.059846,0.127639,-0.263612,-0.363071,-0.156995,0.206672,0.707961,-0.234518,0.014765,0.129860,-0.038512,-0.001074,0.032068,0.008439,-0.031620,-0.001747,-0.008132,-0.092215,-0.006598,0.016418,0.012735,0.016817,-0.023642,0.015804,0.195925,0.053322,-0.143012,-0.030346,0.018733,0.238988,-0.288616,-1.481434,-0.399005,-0.511616,-0.088572,0.886005,-0.454628,-1.121760,-0.326069,0.494826,1.151772,-0.256381,-0.005775,0.356952
62,0.049175,-0.013088,0.062929,-0.036031,0.049568,0.132741,-0.266297,-0.380712,-0.158145,0.209932,0.708920,-0.230617,0.010199,0.133120,-0.044036,-0.002915,0.024089,0.010894,-0.048667,0.012741,-0.014883,-0.085464,-0.004450,0.016418,0.002302,0.023287,-0.024819,0.016724,0.229002,0.022170,-0.199500,-0.028481,0.020036,0.237140,-0.297577,-1.535374,-0.426849,-0.500232,-0.090598,0.895827,-0.469631,-1.068497,-0.305664,0.496195,1.124439,-0.227774,-0.014490,0.340314
63,0.039780,-0.014047,0.066764,-0.033729,0.041459,0.132287,-0.268981,-0.396820,-0.158721,0.213000,0.707770,-0.226685,0.003472,0.136571,-0.048332,-0.005677,0.018566,0.011814,-0.049393,0.005616,-0.011201,-0.078712,-0.001995,0.014883,-0.008132,0.030755,-0.021967,0.017031,0.222264,-0.021118,-0.141347,-0.026510,0.021087,0.235403,-0.239590,-1.511826,-0.417043,-0.538271,-0.125056,0.886614,-0.433126,-1.058851,-0.283473,0.504440,1.064027,-0.177404,-0.024111,0.302106
64,0.030001,-0.015581,0.070599,-0.031237,0.033158,0.131422,-0.270132,-0.411776,-0.158912,0.215109,0.705085,-0.218791,0.000522,0.139639,-0.048639,-0.008132,0.021021,0.013349,-0.033600,-0.019040,-0.004756,-0.073189,0.000460,0.009973,-0.017031,0.038502,-0.018973,0.015804,0.166859,-0.055730,-0.089265,-0.025126,0.021735,0.234268,-0.212866,-1.502800,-0.350667,-0.553166,-0.169417,0.871359,-0.360372,-1.047025,-0.279196,0.522950,0.998370,-0.115446,-0.037829,0.219331
65,0.020796,-0.017115,0.075777,-0.028744,0.028960,0.125428,-0.270324,-0.425390,-0.158721,0.216834,0.699716,-0.210849,-0.001073,0.142324,-0.044957,-0.007211,0.027772,0.011814,-0.023766,-0.023144,0.000153,-0.066131,0.001074,0.007825,-0.028386,0.047128,-0.014832,0.012121,0.146412,-0.152537,-0.114628,-0.023946,0.020863,0.233346,-0.102269,-1.410083,-0.398729,-0.602587,-0.234886,0.849799,-0.398238,-0.949627,-0.223918,0.488922,0.963912,-0.103079,-0.049247,0.269915
66,0.012551,-0.018457,0.082105,-0.027018,0.024844,0.121952,-0.269940,-0.437662,-0.158337,0.218561,0.692813,-0.200873,-0.003424,0.144049,-0.039740,-0.007825,0.032375,0.006905,-0.028982,-0.002251,0.002608,-0.058459,0.001381,0.008746,-0.037592,0.056578,-0.014188,0.005677,0.066775,-0.086662,-0.134909,-0.023730,0.019239,0.232109,-0.213166,-1.326814,-0.310833,-0.582873,-0.283439,0.806314,-0.323909,-0.938968,-0.276630,0.477580,0.906377,-0.052720,-0.064094,0.189407
67,0.005457,-0.020375,0.087473,-0.026251,0.016579,0.125911,-0.268981,-0.448208,-0.158145,0.219711,0.683993,-0.190859,-0.008941,0.144433,-0.032989,-0.009973,0.024703,0.002608,-0.037764,0.005863,0.005984,-0.050787,0.001995,0.004450,-0.047718,0.066793,-0.014683,0.000153,0.045112,-0.055515,-0.103946,-0.023824,0.018150,0.230859,-0.258782,-1.279975,-0.323712,-0.542872,-0.269863,0.770992,-0.352509,-0.887746,-0.258169,0.442172,0.853388,-0.043777,-0.069919,0.215183
68,-0.000296,-0.022867,0.091500,-0.026443,0.008303,0.126343,-0.266872,-0.457605,-0.157570,0.220286,0.673063,-0.176755,-0.011051,0.143858,-0.026851,-0.012735,0.019793,-0.001074,-0.040289,-0.010231,0.012428,-0.044343,0.002915,0.002608,-0.058459,0.078735,-0.015478,-0.004143,0.061821,0.010534,-0.072157,-0.023853,0.017550,0.230006,-0.349661,-1.330688,-0.269661,-0.509412,-0.275985,0.743813,-0.284120,-0.855444,-0.272619,0.429981,0.765832,0.009717,-0.087871,0.123101
69,-0.005090,-0.025743,0.095143,-0.026635,0.002026,0.119984,-0.263612,-0.465274,-0.156995,0.220861,0.660024,-0.160535,-0.013923,0.142899,-0.022862,-0.014269,0.019486,-0.000153,-0.035063,-0.031091,0.017952,-0.036057,0.002915,0.001995,-0.068893,0.090220,-0.019623,-0.005063,0.068802,0.090169,-0.068144,-0.023588,0.017557,0.229323,-0.444556,-1.383333,-0.309370,-0.475888,-0.244587,0.730338,-0.333319,-0.807376,-0.267185,0.393296,0.699628,0.033442,-0.101257,0.141737
70,-0.009692,-0.028620,0.098211,-0.026443,-0.006479,0.117032,-0.259777,-0.471410,-0.156228,0.221053,0.644492,-0.142179,-0.017557,0.141749,-0.022862,-0.014576,0.013656,0.001381,-0.033279,-0.030611,0.020407,-0.028079,0.003222,-0.000153,-0.081167,0.101006,-0.022642,-0.006598,0.024602,0.114203,-0.064128,-0.023642,0.018061,0.228592,-0.474031,-1.332960,-0.266161,-0.467622,-0.242036,0.693030,-0.303306,-0.828806,-0.268408,0.383090,0.585982,0.084829,-0.124515,0.100056
71,-0.014677,-0.031496,0.100321,-0.026059,-0.012760,0.112782,-0.255175,-0.475821,-0.155653,0.220670,0.626659,-0.121653,-0.021348,0.140022,-0.026544,-0.014576,0.009666,0.002302,-0.036008,-0.012440,0.022555,-0.019793,0.003529,-0.002302,-0.093135,0.109677,-0.027686,-0.009360,0.028213,0.098961,-0.043440,-0.023988,0.018823,0.228026,-0.491481,-1.292943,-0.208829,-0.448747,-0.245427,0.655457,-0.288712,-0.805353,-0.260198,0.351111,0.501324,0.129172,-0.144587,0.066742
72,-0.020622,-0.034564,0.101855,-0.025101,-0.016793,0.107244,-0.250381,-0.478505,-0.154885,0.219711,0.608443,-0.098972,-0.025479,0.137722,-0.031761,-0.016418,0.008132,0.005984,-0.035076,-0.005258,0.025010,-0.010894,0.004143,-0.005063,-0.104490,0.116892,-0.033877,-0.013042,0.036587,0.109388,0.010743,-0.024266,0.019719,0.227794,-0.519869,-1.245351,-0.144135,-0.409689,-0.230954,0.602354,-0.263271,-0.778078,-0.238592,0.330471,0.387769,0.186918,-0.160454,0.023818
73,-0.027524,-0.038016,0.104539,-0.023759,-0.023068,0.104734,-0.245588,-0.479464,-0.153927,0.218177,0.583132,-0.078245,-0.036377,0.134462,-0.035444,-0.017031,0.017952,0.008132,-0.030964,-0.019190,0.022248,-0.001688,0.005677,-0.010280,-0.120140,0.121889,-0.040729,-0.018566,0.054375,0.142235,0.085284,-0.024313,0.020998,0.228200,-0.596129,-1.235559,-0.056100,-0.314828,-0.185517,0.540907,-0.220549,-0.746042,-0.212427,0.319900,0.254095,0.255955,-0.169388,-0.045463
74,-0.035194,-0.041659,0.108566,-0.022225,-0.029422,0.100035,-0.241561,-0.478889,-0.152585,0.215684,0.557054,-0.055377,-0.046760,0.130243,-0.039126,-0.017952,0.022862,0.008439,-0.030689,-0.032218,0.019179,0.004756,0.007518,-0.013349,-0.135177,0.127639,-0.047027,-0.021941,0.014712,0.066110,0.152710,-0.024507,0.022200,0.229390,-0.507029,-1.093893,0.043459,-0.284788,-0.194677,0.457912,-0.184938,-0.687670,-0.144062,0.293059,0.128986,0.299821,-0.175619,-0.058758
75,-0.043248,-0.045302,0.113552,-0.020307,-0.035794,0.093737,-0.238109,-0.476971,-0.150859,0.212616,0.528291,-0.030355,-0.055783,0.125258,-0.041274,-0.018259,0.027465,0.009053,-0.033249,-0.031049,0.016724,0.011508,0.008132,-0.015190,-0.148065,0.131366,-0.052061,-0.025931,0.000273,0.036811,0.125327,-0.025166,0.022771,0.230812,-0.452758,-0.906840,0.199044,-0.245423,-0.201101,0.346564,-0.135865,-0.592324,-0.095540,0.261778,0.036027,0.332207,-0.158125,-0.082696
76,-0.051685,-0.049137,0.119688,-0.018773,-0.044221,0.091840,-0.234658,-0.473903,-0.149133,0.209357,0.496652,-0.005321,-0.067209,0.119314,-0.041888,-0.018873,0.033602,0.009360,-0.037510,-0.019472,0.016111,0.017952,0.010280,-0.017031,-0.164023,0.134556,-0.054101,-0.030841,0.061145,0.054521,0.056446,-0.025043,0.023234,0.231686,-0.420437,-0.727715,0.310056,-0.133321,-0.096674,0.214257,-0.136726,-0.455034,-0.017421,0.241357,-0.037250,0.319089,-0.117551,-0.056587
77,-0.060122,-0.052589,0.127933,-0.016664,-0.050476,0.086294,-0.231207,-0.469301,-0.146448,0.205713,0.461562,0.021786,-0.075994,0.112411,-0.041274,-0.016724,0.046491,0.010280,-0.040357,-0.019730,0.018259,0.024396,0.013656,-0.019486,-0.179980,0.138372,-0.050420,-0.035750,0.109107,-0.008120,-0.020832,-0.024328,0.023343,0.231848,-0.226056,-0.536301,0.447608,-0.106157,0.041835,0.099864,-0.097777,-0.293582,0.088254,0.230519,-0.046719,0.240970,-0.128498,-0.043462
78,-0.068176,-0.055657,0.138671,-0.014171,-0.058880,0.081584,-0.226988,-0.463549,-0.143189,0.201111,0.423404,0.048797,-0.083955,0.105124,-0.040047,-0.014576,0.056004,0.013042,-0.042326,-0.031424,0.021941,0.031147,0.018873,-0.024089,-0.197472,0.138938,-0.040606,-0.037285,0.123182,-0.033402,-0.101112,-0.023525,0.022665,0.231216,-0.072564,-0.331126,0.582564,-0.106297,0.273807,-0.024186,-0.062015,-0.105733,0.155796,0.199813,-0.003567,0.122123,-0.184999,-0.007069
79,-0.075846,-0.058341,0.150368,-0.011103,-0.067339,0.074669,-0.221810,-0.456453,-0.138587,0.195359,0.382369,0.075675,-0.089929,0.097262,-0.037899,-0.012121,0.058459,0.016724,-0.041698,-0.043551,0.027465,0.039126,0.024703,-0.029920,-0.207291,0.135168,-0.028819,-0.039740,0.165486,-0.001833,-0.181194,-0.022159,0.021801,0.229777,0.051469,-0.110527,0.667199,-0.054827,0.556578,-0.174476,-0.014086,0.055021,0.226683,0.170922,-0.002686,-0.022914,-0.224278,0.031118
80,-0.083132,-0.060067,0.161872,-0.007268,-0.073688,0.062911,-0.215483,-0.446674,-0.132642,0.188647,0.339226,0.100327,-0.093881,0.089784,-0.034523,-0.006905,0.057538,0.020714,-0.037134,-0.051108,0.033909,0.052935,0.032375,-0.033295,-0.219873,0.123780,-0.012649,-0.036057,0.150087,0.022409,-0.224826,-0.020691,0.021105,0.227768,0.112855,0.074794,0.690439,0.055198,0.814349,-0.321988,0.028453,0.127431,0.276141,0.151788,-0.019513,-0.175033,-0.300231,0.047823
81,-0.089268,-0.060450,0.173761,-0.002857,-0.080121,0.054116,-0.208005,-0.434019,-0.124973,0.181169,0.293972,0.120732,-0.096586,0.083073,-0.028692,0.000460,0.060607,0.023476,-0.020351,-0.061071,0.038205,0.067665,0.041274,-0.039433,-0.228159,0.104718,0.001091,-0.033602,0.329231,0.129437,-0.410570,-0.017805,0.021854,0.224597,0.295218,0.200338,0.486121,0.340593,0.912552,-0.444992,0.007055,0.270501,0.549322,0.237123,-0.034510,-0.260906,-0.456919,0.068975
82,-0.093870,-0.059683,0.187759,0.002511,-0.078256,0.033992,-0.199759,-0.418295,-0.115576,0.172732,0.248336,0.139043,-0.092588,0.076553,-0.019793,0.006291,0.075030,0.028079,0.013632,-0.100576,0.042195,0.083316,0.050787,-0.042808,-0.229079,0.073946,0.005298,-0.029613,0.335245,-0.058672,-0.465624,-0.013976,0.022033,0.220281,0.878958,0.317585,0.155215,0.544093,0.495081,-0.313040,0.143889,0.071778,0.792232,0.517850,-0.165809,-0.562234,-0.674577,-0.098715
83,-0.096171,-0.057191,0.201757,0.008839,-0.074290,0.013634,-0.190555,-0.399504,-0.103688,0.164103,0.202315,0.149184,-0.091547,0.070801,-0.007825,0.016418,0.065517,0.033602,0.022653,-0.095334,0.047412,0.098966,0.064289,-0.043115,-0.229693,0.032962,-0.010832,-0.029306,0.532962,-0.022988,-0.535674,-0.009311,0.020565,0.214866,1.219754,0.280426,-0.314337,0.771116,0.078153,-0.027701,0.160390,0.079078,1.033771,0.675532,-0.191418,-0.635676,-0.822135,-0.211191
84,-0.095980,-0.051822,0.211728,0.017659,-0.072252,0.003659,-0.180393,-0.378220,-0.088539,0.156241,0.156871,0.149215,-0.097851,0.064281,0.005677,0.031454,0.044650,0.049560,0.003863,-0.025910,0.052015,0.110320,0.081474,-0.035137,-0.227852,-0.015699,-0.042424,-0.036057,0.781019,0.004100,-0.358480,-0.002200,0.021251,0.210628,1.078761,0.309377,-0.419676,0.903275,-0.171056,0.077010,0.296998,0.013817,0.834812,0.598564,-0.242657,-0.515450,-0.806466,-0.345437
85,-0.092336,-0.043577,0.214796,0.030891,-0.074316,0.006680,-0.169271,-0.355018,-0.069173,0.153173,0.111042,0.137160,-0.116418,0.055844,0.024703,0.045263,-0.004756,0.072882,-0.015107,0.024299,0.056925,0.115844,0.102342,-0.002915,-0.230921,-0.072054,-0.094781,-0.043115,0.901159,-0.044601,-0.458394,0.006412,0.021173,0.206257,0.995337,0.272318,-0.414887,0.880257,-0.214359,0.083678,0.280928,0.028277,0.734719,0.366141,-0.198092,-0.365958,-0.709404,-0.235395
86,-0.084858,-0.033797,0.205017,0.048915,-0.080498,0.016545,-0.157957,-0.334117,-0.048656,0.149914,0.068090,0.129123,-0.124907,0.044723,0.040967,0.049560,-0.067358,0.098966,-0.034952,0.046638,0.055697,0.095897,0.096511,-0.030534,-0.195937,-0.021473,-0.005133,-0.065210,1.003991,0.255646,-0.132353,0.016628,0.022518,0.203278,0.757357,0.241701,-0.367864,0.916753,-0.337790,0.041868,0.431145,0.214913,0.670553,0.338693,-0.084657,-0.115150,-0.630577,-0.373970
87,-0.074695,-0.026702,0.175295,0.074226,-0.088704,0.022482,-0.147987,-0.316859,-0.033891,0.130739,0.039519,0.139101,-0.101908,0.030533,0.055083,0.027465,-0.191027,0.137632,-0.054360,0.033056,0.038819,0.085770,0.061528,-0.125971,-0.121368,0.073270,0.135104,-0.069199,-0.979461,-1.353964,1.019175,0.015724,0.019037,0.205665,0.110755,0.512883,-0.260647,0.858314,-0.288630,0.153326,0.724692,-1.529988,0.695964,1.080677,-1.012325,-0.929953,-0.930931,-0.653816
88,-0.061848,-0.023634,0.123715,0.100688,-0.101028,0.032485,-0.141851,-0.299410,-0.026604,0.098141,0.021494,0.153187,-0.086650,0.016535,0.070734,0.013042,-0.267438,0.147758,-0.055215,0.037516,0.036364,0.090067,0.028386,-0.170467,-0.082702,0.062145,0.029773,-0.068586,-0.888085,0.799123,1.506966,0.000835,0.013903,0.221067,-0.211351,0.814986,-0.249207,0.978678,-0.367258,0.021062,0.501754,0.151649,1.496154,1.375782,-0.467604,-0.058677,-1.246647,-0.795774
89,-0.045358,-0.020183,0.074434,0.133860,-0.109170,0.036033,-0.132263,-0.281002,-0.022386,0.071488,0.006346,0.159289,-0.094185,0.003305,0.086077,0.021634,-0.229079,0.153589,-0.055091,0.030817,0.051401,0.091294,0.021328,-0.104797,-0.077485,0.006666,-0.074440,-0.067972,-0.282516,0.942076,0.895122,0.000471,0.027416,0.233240,0.463846,0.527684,-0.271006,1.179089,-0.462048,-0.017378,0.592020,0.961690,1.890586,1.138678,0.039514,0.598032,-1.163907,-0.922127
90,-0.026949,-0.010595,0.043946,0.162239,-0.119375,0.040409,-0.120758,-0.264128,-0.017784,0.067461,-0.008802,0.153358,-0.122172,-0.010502,0.092829,0.061528,-0.110627,0.157578,-0.055524,0.016300,0.055697,0.080554,0.025931,0.016111,-0.086998,-0.040006,-0.135448,-0.071041,0.377170,0.422741,0.038459,0.003298,0.034524,0.237500,1.216840,0.320118,-0.450404,0.963344,-0.442666,0.034524,0.497681,0.740310,1.277078,0.456456,0.168852,0.554321,-0.855335,-0.511044
91,-0.009500,0.004745,0.031866,0.197713,-0.131716,0.043815,-0.111937,-0.250514,-0.012223,0.075514,-0.025293,0.145487,-0.149036,-0.026033,0.084850,0.079940,-0.056925,0.164943,-0.057146,-0.005668,0.039126,0.065517,0.026237,0.038512,-0.077792,-0.021711,-0.107261,-0.079019,0.020404,0.289150,-0.492133,0.004821,0.035878,0.235270,1.071131,0.209079,-0.461141,1.086214,-0.486723,0.050192,0.596887,0.670899,1.308929,0.604822,0.114844,0.368882,-0.954123,-0.604261
92,0.005840,0.021427,0.015759,0.232036,-0.141969,0.039019,-0.104843,-0.237091,-0.008772,0.076281,-0.036989,0.151590,-0.156964,-0.043483,0.073189,0.081781,-0.094363,0.173842,-0.059877,-0.025327,0.037592,0.070120,0.013349,-0.012428,-0.048332,0.043522,-0.024725,-0.092829,-0.307388,-0.027299,-0.757513,-0.002107,0.037041,0.228300,0.869718,0.004671,-0.672099,0.899419,-0.332617,-0.011860,0.245186,-0.227404,1.897874,0.783558,-0.443006,0.083260,-1.084511,-0.191453
93,0.020413,0.037342,-0.010511,0.264251,-0.154282,0.034253,-0.095255,-0.221559,-0.007046,0.066886,-0.042359,0.165531,-0.154210,-0.064958,0.074723,0.078712,-0.137018,0.179980,-0.062738,-0.035359,0.050787,0.080554,0.008439,-0.057538,-0.020407,0.087972,0.042065,-0.107865,0.575581,0.177768,-0.711373,-0.000933,0.037700,0.220544,1.052893,0.190583,-0.582150,1.021656,-0.425868,-0.001392,0.356834,0.505430,1.400476,0.388180,0.026181,0.466930,-0.895411,-0.281850
94,0.036520,0.052490,-0.036014,0.301067,-0.166558,0.026714,-0.083942,-0.204685,-0.004361,0.057682,-0.045043,0.179435,-0.143964,-0.084709,0.083622,0.076564,-0.121981,0.185197,-0.063987,-0.044273,0.057538,0.084850,0.016724,-0.034216,-0.010587,0.070814,0.077349,-0.093442,1.041751,0.077698,-0.765600,0.009491,0.040292,0.213440,1.207375,0.350014,-0.456825,0.998673,-0.462982,-0.014382,0.490914,0.553784,0.526333,-0.066004,0.124860,0.624888,-0.428162,-0.312849
95,0.054545,0.067064,-0.058065,0.338266,-0.176728,0.015007,-0.073971,-0.188578,0.000241,0.057298,-0.047344,0.183402,-0.130825,-0.100049,0.092522,0.071041,-0.106024,0.187345,-0.060655,-0.049152,0.045263,0.078099,0.024703,0.005370,-0.012428,-0.000778,0.047472,-0.069199,0.952760,-0.139948,-0.656727,0.020095,0.041283,0.206182,1.146116,0.318054,-0.431570,0.958568,-0.429889,-0.033418,0.488133,0.214912,0.207479,-0.212073,-0.025549,0.483372,-0.232234,-0.195540
96,0.074295,0.080678,-0.080883,0.375466,-0.188858,0.009102,-0.066492,-0.174005,0.005418,0.056531,-0.050220,0.175429,-0.131774,-0.111362,0.101728,0.066744,-0.117685,0.183969,-0.054824,-0.044227,0.037899,0.072268,0.026237,-0.015804,-0.014883,-0.054538,-0.034611,-0.053242,0.462941,-0.200148,-0.460008,0.025139,0.041002,0.200390,0.975254,0.217217,-0.419464,1.061034,-0.454955,-0.045527,0.483460,0.147010,0.485611,-0.123187,-0.029193,0.378928,-0.336359,-0.225395
97,0.095771,0.093142,-0.104085,0.414391,-0.196878,-0.000200,-0.056905,-0.160008,0.009062,0.044834,-0.053288,0.163486,-0.145778,-0.120375,0.110627,0.061221,-0.114616,0.174149,-0.047983,-0.034224,0.054163,0.067665,0.012735,-0.076257,-0.017031,-0.059254,-0.075310,-0.043115,0.230159,-0.025713,-0.252947,0.027848,0.040007,0.196933,0.934886,0.223761,-0.448766,1.071683,-0.377232,-0.096476,0.327948,0.217737,1.056608,-0.022978,-0.089749,0.496090,-0.550371,-0.206599
98,0.118973,0.104647,-0.127671,0.447756,-0.204857,-0.005141,-0.043866,-0.147927,0.009253,0.022783,-0.056356,0.155520,-0.153593,-0.129578,0.117685,0.056004,-0.117685,0.164636,-0.042180,-0.020586,0.067972,0.058459,-0.003222,-0.118299,-0.011814,-0.031227,-0.011396,-0.046798,0.297204,-0.138577,-0.032422,0.031705,0.038426,0.195281,1.044781,0.373421,-0.311266,1.254432,-0.495351,-0.105467,0.570682,0.199836,0.769015,0.056296,-0.180071,0.605347,-0.267457,-0.493099
99,0.143325,0.114810,-0.147996,0.479203,-0.210829,-0.008731,-0.029293,-0.136806,0.008103,0.000540,-0.057890,0.151462,-0.146042,-0.138207,0.122902,0.047718,-0.095283,0.154203,-0.034300,-0.008649,0.072575,0.054776,-0.004756,-0.103569,-0.007211,-0.014733,0.049941,-0.038512,-0.028266,-0.233834,0.342971,0.032801,0.034022,0.197033,0.972100,0.391362,-0.299785,1.316199,-0.482239,-0.081361,0.588575,0.058733,0.808155,0.164536,-0.335358,0.393959,-0.280418,-0.514225
100,0.167677,0.122671,-0.164486,0.508733,-0.216775,-0.007806,-0.014720,-0.126259,0.008103,-0.015184,-0.058849,0.149399,-0.131964,-0.144727,0.121981,0.035444,-0.076871,0.145303,-0.025611,-0.002964,0.072575,0.052628,0.001688,-0.065824,-0.004143,-0.021694,0.047787,-0.031454,-0.116678,-0.016466,0.532336,0.031748,0.031250,0.201440,0.946526,0.429756,-0.327072,1.319042,-0.468715,-0.093294,0.621772,0.296152,0.999230,0.314179,-0.316941,0.425007,-0.425253,-0.606057
101,0.191838,0.128232,-0.178484,0.536536,-0.218770,-0.011475,-0.000531,-0.116288,0.008103,-0.023429,-0.059424,0.143355,-0.129334,-0.151246,0.119526,0.024703,-0.068893,0.137632,-0.018071,-0.002015,0.068586,0.048639,-0.000153,-0.032068,-0.002302,-0.043379,-0.007047,-0.033909,-0.335005,-0.102794,0.577087,0.028905,0.031259,0.207048,0.970968,0.367624,-0.363923,1.326112,-0.451884,-0.090270,0.629773,0.209305,1.309422,0.462103,-0.365313,0.387361,-0.640081,-0.649333
102,0.215040,0.132067,-0.190948,0.560314,-0.222706,-0.010203,0.011741,-0.107468,0.008103,-0.027839,-0.059999,0.129286,-0.142700,-0.159108,0.116458,0.017645,-0.056311,0.129653,-0.012586,-0.006590,0.059686,0.043115,0.000153,-0.018873,-0.002608,-0.070481,-0.065156,-0.041581,-0.391393,-0.184341,0.602464,0.026313,0.030182,0.212994,0.951600,0.309415,-0.403663,1.293148,-0.428533,-0.068096,0.593804,0.146065,1.465469,0.566298,-0.418526,0.284089,-0.771108,-0.639312
103,0.238241,0.134944,-0.197851,0.584857,-0.224666,-0.012301,0.022863,-0.099414,0.008294,-0.031099,-0.060383,0.113296,-0.159586,-0.168121,0.115230,0.013656,-0.023783,0.121061,-0.009877,-0.013512,0.054470,0.040660,0.000460,-0.013349,-0.003222,-0.082870,-0.074810,-0.046798,-0.270840,-0.139484,0.413898,0.023470,0.028444,0.218238,1.054987,0.350296,-0.411442,1.305803,-0.444568,-0.056205,0.612796,0.237050,1.192189,0.513930,-0.404506,0.214349,-0.659584,-0.630940
104,0.260676,0.137436,-0.199385,0.609785,-0.224659,-0.017570,0.033218,-0.091745,0.008486,-0.032825,-0.060766,0.101305,-0.164106,-0.176941,0.110934,0.012121,-0.001995,0.109706,-0.006967,-0.017905,0.050480,0.036671,0.001688,-0.007825,-0.000460,-0.062841,-0.013999,-0.044650,-0.191820,-0.243859,0.054405,0.022083,0.027383,0.220787,1.132117,0.298613,-0.516414,1.212394,-0.372843,-0.027311,0.441606,0.112017,1.196520,0.349058,-0.424667,0.066812,-0.745652,-0.361684
105,0.281961,0.139929,-0.198426,0.630494,-0.226580,-0.019660,0.042805,-0.085033,0.008869,-0.034359,-0.059999,0.093121,-0.159883,-0.185953,0.104797,0.012428,0.005677,0.102035,-0.004734,-0.020272,0.048332,0.033909,0.001074,-0.007518,0.005063,-0.032973,0.028350,-0.044036,-0.114073,-0.542150,-0.192403,0.020890,0.023792,0.219583,1.091629,0.225547,-0.537474,1.223995,-0.367652,-0.014602,0.458114,-0.204819,1.065578,0.344051,-0.586990,-0.180583,-0.766532,-0.296871
106,0.302095,0.142230,-0.196509,0.649477,-0.226545,-0.023754,0.052968,-0.078322,0.008294,-0.036659,-0.058465,0.088995,-0.156798,-0.194774,0.098659,0.010894,0.012428,0.090374,-0.000122,-0.016531,0.051708,0.033602,-0.003529,-0.015804,0.010280,-0.018369,0.005931,-0.044343,-0.174770,-0.218703,-0.151115,0.018273,0.018981,0.218073,0.979509,0.248356,-0.560901,1.219433,-0.339130,-0.018754,0.389701,0.089435,1.273761,0.434644,-0.528874,-0.209044,-0.812779,-0.295403
107,0.321078,0.144147,-0.194975,0.664051,-0.226504,-0.025119,0.062939,-0.071611,0.007336,-0.042220,-0.055973,0.085052,-0.160576,-0.203211,0.094977,0.009360,0.005984,0.077485,0.005604,-0.007478,0.047412,0.033602,-0.005370,-0.031147,0.011814,-0.030256,-0.037028,-0.037899,-0.051819,-0.213756,-0.107845,0.018667,0.017543,0.216453,1.051726,0.249419,-0.546947,1.190015,-0.340648,-0.013328,0.410960,0.074074,1.191206,0.423009,-0.528839,-0.253404,-0.784337,-0.326364
108,0.339486,0.145873,-0.194591,0.677281,-0.226475,-0.022389,0.071376,-0.065283,0.006185,-0.048548,-0.053863,0.075100,-0.172544,-0.208772,0.094670,0.009973,0.001074,0.062448,0.008722,0.004615,0.039433,0.031761,-0.004143,-0.030841,0.009973,-0.057492,-0.052759,-0.025624,0.105980,-0.126592,-0.140162,0.019554,0.017115,0.215372,1.101229,0.326509,-0.498579,1.180219,-0.353433,0.019979,0.407998,0.191861,0.920302,0.254648,-0.442688,-0.291802,-0.670100,-0.309982
109,0.358086,0.148174,-0.194591,0.688595,-0.222598,-0.023873,0.077512,-0.059147,0.005994,-0.053150,-0.052521,0.063007,-0.178770,-0.213374,0.092215,0.011508,-0.000767,0.047105,0.013012,0.012297,0.028079,0.029920,0.000460,-0.021021,0.006291,-0.057234,-0.008264,-0.021634,0.083176,-0.188908,-0.111881,0.021584,0.016931,0.213951,1.068609,0.301959,-0.469756,1.178886,-0.332981,0.017923,0.377066,0.106618,0.925645,0.210020,-0.507349,-0.409094,-0.666353,-0.260984
110,0.376302,0.150283,-0.195934,0.695689,-0.220639,-0.018656,0.083265,-0.053011,0.006185,-0.056793,-0.051179,0.054776,-0.172680,-0.217592,0.088839,0.010894,-0.009053,0.030841,0.018018,0.019557,0.028079,0.030841,0.000767,-0.018873,0.006291,-0.039802,0.038799,-0.020100,-0.020702,-0.205195,-0.080044,0.021219,0.014889,0.212885,1.036114,0.267761,-0.486199,1.171592,-0.293156,0.011245,0.355050,-0.063990,1.025451,0.298647,-0.676283,-0.533852,-0.723460,-0.244685
111,0.393560,0.152393,-0.198426,0.699332,-0.216732,-0.013091,0.089401,-0.046491,0.005994,-0.061587,-0.049837,0.048375,-0.164249,-0.221043,0.085464,0.009666,-0.011814,0.016418,0.021904,0.026258,0.032068,0.033909,-0.001074,-0.025010,0.008439,-0.027788,0.041367,-0.015804,0.034887,-0.101483,0.094144,0.021780,0.012700,0.212991,1.009512,0.312250,-0.453716,1.151826,-0.279662,0.012808,0.374209,0.120566,1.062316,0.375916,-0.640766,-0.538257,-0.731540,-0.342356
112,0.410050,0.153735,-0.200727,0.700675,-0.210830,-0.010300,0.096687,-0.039396,0.005418,-0.067531,-0.047536,0.042227,-0.163532,-0.222961,0.080554,0.006598,-0.011508,0.002915,0.025895,0.028076,0.037285,0.035444,-0.003529,-0.032375,0.011508,-0.036524,-0.014884,-0.007211,0.036224,-0.076026,0.175601,0.022579,0.011813,0.214233,1.032428,0.328116,-0.418235,1.111293,-0.260506,0.026534,0.376667,0.132396,0.988897,0.369875,-0.651906,-0.556174,-0.707072,-0.369236
113,0.425006,0.154693,-0.203412,0.699524,-0.206860,-0.004114,0.103207,-0.032302,0.004843,-0.074051,-0.045235,0.034268,-0.171307,-0.223536,0.073803,0.004143,-0.013656,-0.009053,0.028759,0.028357,0.028692,0.036057,-0.001688,-0.031454,0.010587,-0.047587,-0.046779,-0.001074,-0.068592,-0.083829,0.342152,0.023125,0.011109,0.216892,0.985425,0.328289,-0.370335,1.097353,-0.253888,0.035392,0.412077,0.124120,0.957830,0.430008,-0.687352,-0.606543,-0.699408,-0.442607
114,0.438621,0.155461,-0.205138,0.696648,-0.200882,0.000080,0.107808,-0.025591,0.004843,-0.079995,-0.043318,0.026349,-0.178120,-0.223536,0.067051,0.003222,-0.007211,-0.017338,0.032186,0.024206,0.020100,0.034216,0.000460,-0.030534,0.009360,-0.042510,-0.024620,-0.000767,-0.115044,0.052795,0.342247,0.022774,0.011211,0.220376,0.966345,0.359363,-0.361549,1.055300,-0.215059,0.043335,0.350703,0.278259,1.085181,0.438257,-0.653465,-0.598701,-0.710249,-0.412047
115,0.451276,0.155653,-0.205905,0.691855,-0.194876,0.004879,0.111452,-0.018687,0.004843,-0.086131,-0.041975,0.020243,-0.174836,-0.223920,0.059380,0.001074,-0.003529,-0.025931,0.036193,0.016881,0.018259,0.032989,0.000153,-0.028999,0.006598,-0.031707,0.026610,-0.001688,-0.183643,-0.033708,0.362987,0.021442,0.011572,0.223875,0.882560,0.283034,-0.366337,1.021373,-0.186392,0.052558,0.356696,0.106605,1.200606,0.562453,-0.748676,-0.638488,-0.762799,-0.434236
116,0.462015,0.155653,-0.206097,0.685527,-0.188855,0.009102,0.114904,-0.012168,0.004843,-0.090541,-0.040825,0.013750,-0.166832,-0.224111,0.052322,-0.000153,0.001381,-0.033909,0.039141,0.011254,0.015497,0.033295,0.000153,-0.018873,0.004450,-0.029916,0.049656,-0.000460,-0.070467,-0.053405,0.388631,0.020691,0.011061,0.227616,0.895617,0.324713,-0.346451,0.970289,-0.151070,0.074046,0.336476,0.143401,1.093376,0.534914,-0.770605,-0.704831,-0.740422,-0.411761
117,0.471027,0.155653,-0.205713,0.677665,-0.178771,0.006343,0.116629,-0.005457,0.004843,-0.093034,-0.040057,0.007481,-0.160749,-0.223920,0.043115,0.000153,0.001381,-0.041888,0.042522,0.007632,0.004756,0.033909,0.000153,-0.011201,0.003836,-0.038193,0.009638,0.001688,-0.079334,-0.034280,0.370722,0.020699,0.010740,0.231464,0.854369,0.324490,-0.326006,0.917491,-0.131134,0.089685,0.335354,0.179603,1.019015,0.546274,-0.759172,-0.728282,-0.710322,-0.418164
118,0.478505,0.155653,-0.205330,0.668077,-0.170686,0.008365,0.116438,0.001254,0.004843,-0.095335,-0.039099,-0.000624,-0.166332,-0.223536,0.034216,0.000153,0.003836,-0.050787,0.047512,0.007212,-0.001381,0.033602,0.000153,-0.010894,0.004450,-0.040493,-0.031406,0.002302,-0.105325,0.020482,0.316444,0.020301,0.010548,0.234911,0.815165,0.312183,-0.321704,0.827594,-0.090795,0.107014,0.281726,0.230075,1.031835,0.534913,-0.723925,-0.713528,-0.681321,-0.370618
119,0.484257,0.155653,-0.203604,0.656573,-0.162582,0.012176,0.116438,0.007583,0.004843,-0.097445,-0.038331,-0.008681,-0.173879,-0.222961,0.026544,-0.000153,0.011814,-0.059993,0.053214,0.009828,-0.000460,0.031147,-0.000153,-0.010894,0.004450,-0.033890,-0.020324,0.002915,-0.092094,0.138083,0.192541,0.020090,0.011240,0.237520,0.788509,0.349376,-0.283832,0.766453,-0.067729,0.116787,0.230200,0.445864,1.115303,0.504604,-0.618771,-0.647093,-0.653543,-0.346445
120,0.488284,0.155461,-0.200536,0.642958,-0.152410,0.015957,0.116438,0.013527,0.004843,-0.100129,-0.037565,-0.012733,-0.172142,-0.222386,0.017645,-0.000767,0.016111,-0.069506,0.059411,0.017092,-0.000460,0.028079,0.000153,-0.012121,0.002302,-0.023698,0.016743,0.003222,-0.087147,0.107589,0.057545,0.019583,0.012372,0.238652,0.766668,0.297484,-0.280579,0.670820,-0.023946,0.138108,0.176019,0.362874,1.170873,0.495562,-0.641473,-0.656988,-0.643435,-0.280844
121,0.490585,0.155269,-0.197084,0.627618,-0.140142,0.019705,0.116438,0.018896,0.004843,-0.101088,-0.037565,-0.017133,-0.165470,-0.221619,0.008439,-0.000153,0.018566,-0.079633,0.065980,0.026307,-0.000460,0.027772,0.000767,-0.001074,0.000153,-0.020902,0.040297,0.004450,0.031729,0.082176,0.035514,0.019698,0.013572,0.239165,0.782943,0.322395,-0.241210,0.612444,0.008662,0.156537,0.171173,0.350750,1.011355,0.417430,-0.673835,-0.714482,-0.594481,-0.265174
122,0.490777,0.155269,-0.193441,0.610169,-0.125743,0.024012,0.116246,0.024649,0.005226,-0.101088,-0.037373,-0.021454,-0.158978,-0.220660,-0.001381,0.000153,0.019179,-0.090067,0.072811,0.036338,-0.001074,0.028692,0.001381,0.000460,0.000153,-0.022513,0.023788,0.004450,0.058137,0.075030,-0.046478,0.020978,0.014004,0.239241,0.756072,0.328909,-0.212945,0.529888,0.053586,0.173215,0.110170,0.375268,0.930527,0.341642,-0.657687,-0.741947,-0.537189,-0.204640
123,0.489435,0.155269,-0.189222,0.593103,-0.111270,0.035675,0.115671,0.030209,0.005418,-0.101279,-0.037373,-0.025517,-0.159377,-0.219701,-0.007825,-0.000153,0.022248,-0.099580,0.079857,0.045184,-0.003529,0.028386,0.001381,-0.001688,-0.000153,-0.022381,-0.009668,0.007211,-0.020928,0.139495,-0.107684,0.021631,0.014755,0.238403,0.679873,0.300704,-0.200499,0.412533,0.120621,0.193282,0.024946,0.441370,1.015366,0.302565,-0.595486,-0.688341,-0.498306,-0.163670
124,0.487134,0.155078,-0.183662,0.571244,-0.094677,0.039917,0.114328,0.035770,0.005610,-0.103964,-0.037373,-0.027352,-0.157501,-0.217400,-0.013349,-0.001074,0.029920,-0.111241,0.085492,0.048857,-0.007825,0.027158,0.001074,-0.017952,-0.000460,-0.023616,-0.007860,0.014883,-0.060451,0.193239,-0.098215,0.021461,0.016186,0.237403,0.635995,0.291870,-0.147445,0.325961,0.161688,0.208476,0.008210,0.544949,1.091493,0.275319,-0.526292,-0.613222,-0.455615,-0.193269
125,0.483682,0.154885,-0.177909,0.547850,-0.080140,0.053122,0.112986,0.040947,0.005802,-0.109141,-0.037373,-0.033668,-0.158380,-0.214332,-0.018566,-0.001688,0.027772,-0.123516,0.092011,0.051475,-0.007825,0.025624,0.000153,-0.028386,-0.000153,-0.026760,0.018036,0.016418,-0.093400,0.176183,-0.130415,0.020945,0.017919,0.236314,0.579265,0.229087,-0.137607,0.187938,0.229704,0.235372,-0.082709,0.479332,1.132443,0.211507,-0.507951,-0.617696,-0.422578,-0.107032
126,0.479080,0.154310,-0.172924,0.521004,-0.061356,0.063387,0.111260,0.046124,0.005994,-0.114702,-0.037373,-0.040140,-0.153313,-0.211265,-0.024703,-0.003222,0.024703,-0.134256,0.100637,0.050410,-0.009666,0.026544,0.001688,-0.026851,0.000153,-0.028098,0.035568,0.013656,-0.097904,0.164982,-0.144035,0.020194,0.019531,0.234959,0.542323,0.199371,-0.114001,0.114916,0.269981,0.248309,-0.094189,0.454837,1.030279,0.125755,-0.502954,-0.622498,-0.364849,-0.096547
127,0.473136,0.153351,-0.167171,0.489558,-0.040404,0.071715,0.108575,0.051494,0.006569,-0.119113,-0.037373,-0.044362,-0.146558,-0.208388,-0.031454,-0.004756,0.029920,-0.147452,0.108191,0.049595,-0.015804,0.027772,0.004143,-0.021634,-0.000153,-0.027254,0.017848,0.015497,-0.118727,0.203551,-0.116221,0.019310,0.021041,0.233564,0.502933,0.172651,-0.101999,0.026961,0.306623,0.254490,-0.127606,0.511655,0.941749,0.008189,-0.395898,-0.548820,-0.278364,-0.074980
128,0.466042,0.152009,-0.160652,0.461370,-0.017448,0.078668,0.104549,0.057054,0.007528,-0.123906,-0.037373,-0.048426,-0.143948,-0.204745,-0.038819,-0.006905,0.034523,-0.161261,0.116407,0.044844,-0.022555,0.028999,0.005370,-0.028079,0.000460,-0.026951,0.001414,0.021021,-0.189301,0.199461,0.045296,0.017869,0.022869,0.233318,0.400789,0.044853,-0.115192,-0.038876,0.279650,0.258161,-0.031051,0.428466,0.843597,-0.028458,-0.240418,-0.392902,-0.189407,-0.144745
129,0.457221,0.150475,-0.152598,0.427047,0.003326,0.090853,0.099563,0.062998,0.008678,-0.131192,-0.036989,-0.056857,-0.149410,-0.199568,-0.045263,-0.008439,0.042502,-0.174149,0.123328,0.040853,-0.026851,0.028999,0.005063,-0.039126,0.001381,-0.027501,0.004518,0.027465,-0.205678,0.154277,0.080514,0.015934,0.024042,0.233984,0.303638,-0.006715,-0.107113,-0.065406,0.234963,0.271534,-0.064123,0.311763,0.680179,-0.215327,-0.140694,-0.225177,-0.051682,-0.051406
130,0.447058,0.148174,-0.143394,0.386204,0.028358,0.096980,0.094195,0.068942,0.009445,-0.140588,-0.036222,-0.058811,-0.140760,-0.194006,-0.052015,-0.012121,0.046491,-0.190414,0.127239,0.036561,-0.026544,0.030227,0.004143,-0.047718,0.004756,-0.027770,0.021229,0.028079,-0.202575,0.183385,0.096383,0.014028,0.025245,0.234938,0.156335,-0.103541,-0.109035,-0.046597,0.137425,0.299521,-0.008435,0.207451,0.456515,-0.357100,-0.024155,0.097638,0.100603,-0.037411
131,0.435745,0.145298,-0.134190,0.346704,0.053220,0.103287,0.089017,0.074887,0.009637,-0.150751,-0.034880,-0.067436,-0.139450,-0.187870,-0.059380,-0.016418,0.047105,-0.203302,0.128518,0.031467,-0.027158,0.029920,0.000153,-0.050787,0.009360,-0.028383,0.026898,0.032682,-0.212808,0.225849,0.105702,0.012062,0.026887,0.235970,0.030813,-0.157324,-0.089476,-0.049847,0.022559,0.333327,-0.001729,0.127505,0.207790,-0.482908,0.130662,0.500994,0.316120,0.034396
132,0.422514,0.141271,-0.124794,0.304518,0.077988,0.107829,0.083073,0.080640,0.009445,-0.161106,-0.031429,-0.071683,-0.134220,-0.180968,-0.068586,-0.021328,0.046798,-0.213122,0.121830,0.028012,-0.029306,0.028386,-0.000767,-0.051708,0.018566,-0.024980,0.028420,0.035750,-0.198730,0.173993,0.090963,0.010205,0.028632,0.236964,-0.075921,-0.251693,-0.102940,-0.056668,-0.141662,0.375751,-0.001057,-0.079089,-0.021808,-0.526120,0.273162,0.812997,0.526130,0.121142
133,0.407558,0.136094,-0.115591,0.260799,0.098493,0.115472,0.077512,0.085817,0.008869,-0.171652,-0.026443,-0.073899,-0.125544,-0.173873,-0.078712,-0.028079,0.047105,-0.220487,0.107709,0.025878,-0.027772,0.025010,-0.004450,-0.053549,0.027465,-0.015450,0.033846,0.036671,-0.222240,0.169100,0.139093,0.008093,0.029914,0.238107,-0.123575,-0.521814,-0.253121,-0.103125,-0.287319,0.564402,-0.053263,-0.311270,-0.193886,-0.380852,0.562819,0.920050,0.618934,0.157866
134,0.390108,0.129383,-0.106194,0.216121,0.116912,0.119836,0.072143,0.090227,0.006952,-0.182390,-0.020307,-0.078390,-0.121292,-0.166011,-0.089146,-0.036057,0.046798,-0.222942,0.080324,0.029790,-0.028999,0.020714,-0.012735,-0.052015,0.035137,-0.010084,0.034358,0.039740,-0.280140,0.167650,0.181298,0.005534,0.031292,0.239697,-0.160786,-0.989242,-0.594032,-0.141045,-0.391355,0.867166,-0.278911,-0.943844,-0.341769,-0.012657,0.833784,0.459776,0.392021,0.237742
135,0.370741,0.120562,-0.097374,0.175854,0.127127,0.128631,0.064857,0.093295,0.002734,-0.191786,-0.011870,-0.080698,-0.114792,-0.157382,-0.100193,-0.046798,0.041581,-0.222942,0.039234,0.047747,-0.040660,0.011814,-0.024703,-0.044343,0.046491,-0.011171,0.037094,0.044957,-0.402011,0.173613,0.230199,0.002161,0.033143,0.241801,-0.221409,-1.248373,-0.734757,-0.115014,-0.362210,1.017627,-0.400379,-1.295692,-0.375351,0.414774,0.954091,-0.066553,0.012062,0.271103
136,0.349649,0.109249,-0.091814,0.131560,0.129296,0.141202,0.055844,0.093103,-0.004170,-0.198497,-0.000173,-0.082964,-0.105306,-0.147411,-0.107865,-0.061528,0.019486,-0.222942,-0.008261,0.078313,-0.048025,-0.005984,-0.038819,-0.026237,0.063676,-0.018730,0.041096,0.049867,-0.524061,0.203338,0.215083,-0.002689,0.035015,0.244030,-0.262958,-1.156289,-0.644499,-0.094812,-0.183984,0.995088,-0.472703,-1.083758,-0.389906,0.464451,1.004530,-0.267009,-0.105335,0.369939
137,0.327597,0.094484,-0.092772,0.082855,0.123502,0.160140,0.045106,0.088693,-0.014332,-0.196963,0.017659,-0.087298,-0.096862,-0.137249,-0.111855,-0.079326,-0.013042,-0.221101,-0.056765,0.124811,-0.054470,-0.030841,-0.056004,0.024703,0.090067,-0.030852,0.045388,0.052628,-0.692228,0.082864,0.041368,-0.009498,0.037077,0.245599,-0.184446,-0.985251,-0.503192,-0.100002,-0.047697,0.885782,-0.462614,-0.916336,-0.349517,0.428063,0.965647,-0.337625,-0.103902,0.438055
138,0.304970,0.076076,-0.099100,0.043354,0.107994,0.192498,0.033985,0.078339,-0.027563,-0.182774,0.039711,-0.095807,-0.088900,-0.126319,-0.113389,-0.095897,-0.037285,-0.217111,-0.103527,0.186311,-0.056311,-0.059993,-0.069813,0.090987,0.117992,-0.047126,0.043613,0.055390,-0.707666,-0.107012,-0.332847,-0.016843,0.036381,0.244024,-0.042337,-0.747020,-0.492455,-0.144357,0.020492,0.771942,-0.529797,-0.732205,-0.256398,0.358413,0.910362,-0.384118,-0.069311,0.545086
139,0.283878,0.058051,-0.097566,0.005004,0.106176,0.209372,0.021713,0.062998,-0.041561,-0.157079,0.066748,-0.108366,-0.084385,-0.115389,-0.097738,-0.082088,0.048332,-0.141007,0.054611,0.011648,-0.063676,-0.083316,-0.065824,0.141314,0.143462,-0.067011,0.028632,0.054776,-0.695588,-0.063278,-0.638081,-0.025394,0.033745,0.238942,0.035101,-0.582898,-0.495389,-0.195180,0.026385,0.692086,-0.607773,-0.598188,-0.206906,0.317007,0.917089,-0.395909,-0.033257,0.618042
140,0.264511,0.046354,-0.067653,-0.013404,0.131878,0.188908,0.009057,0.044399,-0.051148,-0.120454,0.100112,-0.122747,-0.080271,-0.107719,-0.098045,-0.043422,0.170774,-0.075951,0.159435,-0.134137,-0.063062,-0.097125,-0.043115,0.201154,0.172308,-0.080762,0.016343,0.030841,1.595218,-1.284180,-1.162997,-0.018423,0.025019,0.232271,1.555025,-1.023885,-1.154675,-1.067102,-0.792499,1.009707,-0.600747,-0.067115,-0.553785,0.359232,0.951805,-0.238471,-0.047835,0.665327
141,0.243994,0.040794,-0.033521,-0.025293,0.167511,0.151613,-0.001872,0.024649,-0.060353,-0.068490,0.132135,-0.139130,-0.078931,-0.100624,-0.102955,-0.024089,0.148679,-0.054776,0.182890,-0.185233,-0.049253,-0.097432,-0.047105,0.268972,0.179980,-0.085508,0.001046,0.042808,-0.176505,1.223311,-1.419426,-0.009241,0.026106,0.218841,-1.055216,-1.534462,-1.169221,-0.028877,0.596025,1.058043,-1.099893,-0.057304,-0.620312,0.286089,1.126341,-0.438128,0.020252,0.660734
142,0.224435,0.034275,-0.022016,-0.036606,0.199308,0.116299,-0.009159,0.005090,-0.070132,-0.022662,0.168567,-0.155401,-0.079324,-0.087010,-0.092829,-0.038512,0.020714,-0.059686,0.144382,-0.164631,-0.031147,-0.098659,-0.049560,0.200847,0.182128,-0.086062,0.004979,0.078406,-0.585695,0.661795,-0.332762,-0.017511,0.035386,0.210109,-0.982335,-1.186756,-0.470194,0.297663,0.700543,0.842121,-0.705649,-1.029169,-0.400691,0.351149,1.038081,-0.499811,-0.010416,0.585298
143,0.210054,0.025454,-0.028919,-0.049837,0.213244,0.091638,-0.017980,-0.014469,-0.080103,-0.000802,0.205766,-0.169623,-0.074102,-0.070328,-0.063062,-0.041274,-0.052935,-0.067665,0.041838,-0.095706,-0.053549,-0.095897,-0.051401,0.079326,0.189186,-0.079647,0.029560,0.078099,-0.146542,0.213525,0.036417,-0.023354,0.042891,0.208676,-0.669964,-1.098815,-0.606080,0.133690,0.689960,0.902260,-0.728322,-1.006929,-0.300370,0.442236,0.899743,-0.487143,-0.003660,0.629415
144,0.199124,0.020276,-0.037548,-0.061342,0.209278,0.089084,-0.033128,-0.032685,-0.091224,0.014921,0.244309,-0.181849,-0.067268,-0.059781,-0.052628,-0.018259,-0.023169,-0.050480,-0.049012,0.040692,-0.083316,-0.087612,-0.057231,0.084850,0.193789,-0.069345,0.049887,0.042808,0.337263,-0.615152,0.481013,-0.017104,0.043752,0.211993,0.340126,-1.517345,-0.643542,-0.477413,-0.185064,1.049070,-0.325019,-1.026933,-0.198018,0.518830,1.053203,-0.404241,-0.019053,0.464982
145,0.187620,0.020276,-0.032562,-0.067670,0.191361,0.121002,-0.052687,-0.049175,-0.103113,0.034480,0.286686,-0.194228,-0.055908,-0.052878,-0.060300,0.006905,0.036978,-0.028692,-0.084730,0.170500,-0.102035,-0.082088,-0.060300,0.101421,0.192255,-0.063858,0.065169,0.038819,0.191243,-0.262213,1.149770,-0.014198,0.038654,0.219884,0.353574,-2.068585,-0.592740,-0.741312,-0.209412,1.074854,0.108890,-0.920150,-0.162352,0.717021,1.012356,-0.200041,0.014563,-0.072571
146,0.174772,0.022769,-0.023934,-0.070354,0.179459,0.154166,-0.074163,-0.066050,-0.115193,0.055956,0.325035,-0.204472,-0.039856,-0.043291,-0.064596,0.013656,0.041274,-0.006905,-0.050821,0.140705,-0.106945,-0.086998,-0.059993,0.109400,0.191027,-0.059860,0.073641,0.051401,-0.260307,0.060225,1.593682,-0.014279,0.039022,0.234344,-0.717214,-1.520356,-0.131208,0.055384,0.447991,0.807086,-0.195047,-1.323805,-0.422072,0.604052,1.083291,-0.331583,-0.027231,0.106753
147,0.163459,0.024495,-0.017031,-0.069204,0.175525,0.168661,-0.093146,-0.084841,-0.125931,0.078582,0.359167,-0.216687,-0.026454,-0.032744,-0.052015,0.004450,0.029306,0.006598,-0.018810,0.051142,-0.088532,-0.097125,-0.049867,0.117378,0.189186,-0.048903,0.072937,0.048946,-0.242576,-0.364577,1.363770,-0.018201,0.037314,0.249009,0.005538,-1.068190,0.061647,-0.151636,0.190842,0.681047,-0.133020,-1.280116,-0.291241,0.571084,1.117477,-0.385503,-0.087864,0.222635
148,0.154638,0.022577,-0.013387,-0.068820,0.173543,0.167981,-0.108294,-0.105550,-0.134943,0.103702,0.399435,-0.220722,-0.011056,-0.024499,-0.041274,-0.015804,0.015804,-0.001074,-0.009251,-0.018038,-0.073803,-0.106638,-0.044343,0.129653,0.180594,-0.032033,0.062063,0.041274,-0.339294,-0.013181,0.704125,-0.018689,0.033694,0.259368,-0.258004,-0.916582,-0.035206,-0.072811,0.180668,0.633834,-0.233137,-1.016588,-0.282645,0.548754,1.112103,-0.433574,-0.033546,0.364825
149,0.146968,0.016825,-0.010127,-0.069971,0.171543,0.159611,-0.122867,-0.128177,-0.143764,0.130163,0.434525,-0.226698,-0.006087,-0.015679,-0.038819,-0.033602,0.019486,-0.005370,-0.016739,-0.037881,-0.072268,-0.115230,-0.044957,0.133335,0.173229,-0.015784,0.037637,0.042502,-0.542619,-0.039138,0.306938,-0.023527,0.032304,0.264539,-0.057506,-0.732853,0.148406,-0.185218,0.117655,0.578694,-0.142167,-1.036478,-0.254926,0.504081,1.062916,-0.363957,0.000151,0.315412
150,0.138915,0.009155,-0.003224,-0.070929,0.165533,0.149985,-0.135714,-0.152146,-0.153351,0.153557,0.468273,-0.226699,-0.001404,-0.008776,-0.040047,-0.040354,0.042502,-0.003836,-0.033390,-0.055899,-0.059686,-0.122595,-0.048332,0.101421,0.166784,-0.000878,0.005359,0.032989,-0.478454,-0.075206,-0.088038,-0.028445,0.030795,0.265473,-0.076488,-0.654077,0.086887,-0.152139,0.241600,0.577606,-0.302582,-0.913577,-0.244251,0.475308,1.074011,-0.387331,0.039119,0.445577
151,0.130670,0.000910,0.008856,-0.070929,0.155451,0.136229,-0.146069,-0.177457,-0.162555,0.166404,0.497611,-0.224720,-0.003315,-0.001106,-0.042502,-0.040354,0.069506,0.001995,-0.052193,-0.081693,-0.049867,-0.127198,-0.044343,0.055697,0.160340,0.009291,-0.022596,0.046184,-0.299715,-0.039934,-0.314188,-0.032166,0.028843,0.263374,-0.359609,-0.610845,-0.023182,-0.102774,0.423522,0.521571,-0.553073,-0.899263,-0.386939,0.352297,1.176441,-0.475370,0.055604,0.604312
152,0.121849,-0.006185,0.024771,-0.069395,0.141232,0.118523,-0.156615,-0.202767,-0.170609,0.177526,0.530976,-0.222726,-0.009137,0.011358,-0.043729,-0.030227,0.083009,0.011508,-0.073563,-0.088183,-0.054163,-0.123822,-0.038205,0.056925,0.147145,0.014274,-0.032947,0.067358,-0.172136,-0.173139,-0.714720,-0.033361,0.029030,0.258145,0.069437,-0.735285,-0.194094,-0.378276,0.274996,0.688577,-0.549889,-0.927771,-0.297355,0.389686,1.176348,-0.431374,0.067171,0.635923
153,0.112645,-0.009637,0.042028,-0.065943,0.124943,0.108524,-0.167353,-0.226737,-0.176745,0.189414,0.556095,-0.218720,-0.013760,0.024397,-0.047105,-0.012121,0.088839,0.022555,-0.076273,-0.015656,-0.051708,-0.118299,-0.026544,0.059993,0.136404,0.018812,-0.028520,0.060914,0.208551,-0.357629,-0.723210,-0.033918,0.027379,0.250896,0.179730,-1.108473,-0.406723,-0.597826,0.091002,0.832533,-0.551910,-0.922573,-0.299237,0.407454,1.226272,-0.375124,0.068186,0.587223
154,0.102674,-0.010020,0.057369,-0.059232,0.112842,0.113719,-0.175982,-0.250130,-0.180772,0.198235,0.581598,-0.216725,-0.020579,0.035902,-0.050173,0.001074,0.069813,0.033295,-0.070222,0.052672,-0.041581,-0.115844,-0.017952,0.036978,0.123822,0.018582,-0.015983,0.058766,0.244409,-0.209386,-0.881048,-0.031371,0.024177,0.242597,-0.002480,-1.210315,-0.587996,-0.634106,0.065047,0.861169,-0.716178,-0.877921,-0.364951,0.364262,1.301425,-0.377182,0.041180,0.652939
155,0.092511,-0.009828,0.066381,-0.052905,0.102895,0.131499,-0.183461,-0.271990,-0.184032,0.206096,0.606909,-0.212728,-0.018561,0.047791,-0.051094,0.000153,0.033295,0.036364,-0.043383,0.090565,-0.036057,-0.106638,-0.014576,0.047105,0.110627,0.012966,0.002590,0.062141,0.182972,-0.383954,-1.035980,-0.030468,0.022276,0.233055,0.156200,-1.028906,-0.670953,-0.712787,-0.045628,0.835349,-0.756985,-0.906452,-0.353055,0.355994,1.299159,-0.418837,0.034912,0.720052
156,0.083115,-0.010212,0.068107,-0.045618,0.096956,0.142800,-0.189980,-0.292698,-0.185757,0.214917,0.627618,-0.210770,-0.014606,0.061021,-0.044957,-0.003529,0.000153,0.035750,-0.027220,0.033403,-0.032068,-0.102035,-0.005063,0.037899,0.100500,0.008316,0.024956,0.067358,0.094365,-0.270362,-0.774435,-0.029550,0.018625,0.223491,-0.084260,-0.935536,-0.608044,-0.607589,-0.098259,0.815229,-0.651846,-0.916004,-0.371735,0.400268,1.248972,-0.397856,0.025530,0.632655
157,0.075637,-0.011362,0.067915,-0.039099,0.090787,0.143857,-0.196499,-0.312641,-0.185182,0.218944,0.646218,-0.210831,-0.009899,0.073485,-0.032989,-0.004756,-0.000153,0.025010,-0.027077,-0.028807,-0.033909,-0.097125,0.004450,0.012428,0.089453,0.007343,0.040203,0.058766,0.245228,-0.199204,-0.317849,-0.027958,0.015460,0.218385,-0.118526,-1.215069,-0.604871,-0.615081,-0.204240,0.903211,-0.500240,-0.933125,-0.318093,0.466502,1.235670,-0.355762,0.030127,0.518081
158,0.070268,-0.011937,0.067531,-0.035839,0.084517,0.127900,-0.203403,-0.330857,-0.184223,0.219519,0.662325,-0.210852,-0.003034,0.082497,-0.023783,-0.001381,-0.005370,0.013349,-0.049169,-0.069337,-0.035137,-0.087919,0.005370,0.000767,0.075030,0.004728,0.044723,0.039740,-0.033696,-0.179085,-0.161784,-0.027754,0.014830,0.215899,-0.068998,-1.128754,-0.593705,-0.616882,-0.228889,0.881903,-0.489976,-0.975486,-0.290531,0.501281,1.189241,-0.365489,0.023492,0.524705
159,0.066241,-0.011746,0.067148,-0.034497,0.069987,0.121778,-0.210497,-0.347540,-0.183265,0.220095,0.675172,-0.208847,0.007405,0.089209,-0.019793,0.001074,-0.000153,0.005370,-0.069979,-0.028346,-0.034523,-0.081474,0.005063,0.005063,0.060914,0.004627,0.038413,0.032068,0.039933,-0.063428,0.130527,-0.029074,0.013842,0.215879,-0.301828,-1.227368,-0.567144,-0.506760,-0.240261,0.872180,-0.390331,-0.984308,-0.323933,0.532034,1.152493,-0.349411,0.006185,0.414193
160,0.062598,-0.011554,0.067148,-0.033346,0.055659,0.126743,-0.216442,-0.363263,-0.182114,0.220286,0.685718,-0.208806,0.011722,0.095153,-0.018873,0.000460,-0.000153,0.006291,-0.064917,0.030598,-0.026544,-0.075951,0.005063,0.000460,0.049253,0.005727,0.026279,0.030227,0.085676,-0.202547,0.260938,-0.028312,0.013202,0.217926,-0.043679,-1.199611,-0.528258,-0.657556,-0.375792,0.854072,-0.311821,-1.073488,-0.289863,0.563367,1.129232,-0.300537,-0.009607,0.367629
161,0.058380,-0.011746,0.067148,-0.031620,0.049731,0.133129,-0.220852,-0.377836,-0.181155,0.220670,0.693005,-0.206804,0.015696,0.101673,-0.021328,-0.000153,0.000153,0.010894,-0.020254,0.032160,-0.021634,-0.071348,0.005063,0.004143,0.036364,0.007827,0.007640,0.033602,0.147539,-0.033703,0.256190,-0.028519,0.010921,0.220604,-0.224326,-1.344391,-0.506224,-0.610147,-0.403347,0.855649,-0.311419,-1.050578,-0.324721,0.532732,1.126400,-0.277017,-0.019543,0.307247
162,0.053586,-0.011746,0.067339,-0.029127,0.049784,0.136614,-0.225837,-0.391450,-0.180388,0.222587,0.698182,-0.204823,0.016336,0.108384,-0.025624,0.000153,0.000460,0.013042,0.003510,0.005972,-0.026237,-0.066744,0.004450,0.011814,0.018566,0.007793,-0.008497,0.033295,0.056859,0.031885,0.154981,-0.027742,0.010516,0.222772,-0.283836,-1.383753,-0.524684,-0.571063,-0.388852,0.843451,-0.359100,-1.044080,-0.305129,0.516637,1.079593,-0.252950,-0.026404,0.312086
163,0.047833,-0.011937,0.067339,-0.027018,0.047649,0.135196,-0.231398,-0.404106,-0.179621,0.226038,0.699716,-0.202851,0.013047,0.114711,-0.028999,-0.001995,0.000767,0.010280,-0.014166,-0.022678,-0.027772,-0.061835,0.002608,0.018566,0.002915,0.011838,-0.022110,0.031147,-0.085871,0.017073,0.224360,-0.028218,0.011098,0.224366,-0.261282,-1.167687,-0.377845,-0.570977,-0.430635,0.787789,-0.328152,-1.115660,-0.348740,0.485209,1.054856,-0.242554,-0.042261,0.304364
164,0.041697,-0.012896,0.067339,-0.025293,0.041326,0.129182,-0.236576,-0.415994,-0.179238,0.229682,0.698757,-0.200869,0.005427,0.119314,-0.032375,-0.006291,-0.000153,0.006598,-0.041277,-0.038657,-0.024396,-0.057845,0.002302,0.013963,-0.008746,0.018835,-0.030730,0.017645,-0.046169,0.003829,0.274613,-0.029989,0.011510,0.227025,-0.300896,-1.171292,-0.299662,-0.546890,-0.452552,0.767567,-0.287178,-1.090380,-0.360897,0.459732,1.022696,-0.212792,-0.045821,0.249270
165,0.034794,-0.014814,0.067339,-0.024525,0.028818,0.126208,-0.241177,-0.426924,-0.178854,0.229106,0.695881,-0.196880,-0.001572,0.120848,-0.035444,-0.009360,0.001074,0.003222,-0.062350,-0.019749,-0.023476,-0.053549,0.002608,-0.009360,-0.018259,0.025954,-0.032921,0.006598,0.023031,0.117010,0.352184,-0.029846,0.012516,0.230219,-0.370281,-1.296993,-0.255061,-0.528340,-0.393495,0.770563,-0.244059,-1.079522,-0.362064,0.477851,0.950141,-0.142436,-0.052067,0.148927
166,0.027508,-0.016539,0.068490,-0.023759,0.018514,0.123260,-0.245971,-0.436895,-0.178279,0.227381,0.690129,-0.190859,-0.007167,0.122190,-0.036978,-0.007825,0.010894,0.004756,-0.052964,-0.006366,-0.022555,-0.047412,0.001995,-0.004450,-0.029920,0.032298,-0.032610,0.006598,0.103613,0.118586,0.047103,-0.029416,0.014950,0.232196,-0.352251,-1.373844,-0.421350,-0.524208,-0.313995,0.791117,-0.421309,-0.984472,-0.286758,0.445967,0.908974,-0.132989,-0.055056,0.280726
167,0.019837,-0.017498,0.074434,-0.022225,0.014464,0.117413,-0.249998,-0.445524,-0.178087,0.227956,0.682843,-0.184812,-0.014951,0.123532,-0.037899,-0.003222,0.036364,0.008132,-0.026608,-0.008964,-0.017031,-0.040354,0.000460,0.004143,-0.040047,0.040312,-0.031256,0.007518,0.126854,-0.051762,-0.212096,-0.028450,0.014836,0.231307,-0.145938,-1.342813,-0.421327,-0.645339,-0.429365,0.780151,-0.373433,-0.933103,-0.249891,0.427687,0.850519,-0.075838,-0.081594,0.241054
168,0.011784,-0.018457,0.082680,-0.020499,0.010239,0.119382,-0.251724,-0.452619,-0.178279,0.227956,0.673638,-0.174676,-0.017346,0.125258,-0.040354,-0.005677,0.039433,0.009053,-0.008437,-0.003734,-0.005677,-0.033602,-0.000460,-0.002608,-0.049867,0.048457,-0.026053,0.008746,0.043337,0.097105,-0.197277,-0.028033,0.014635,0.229106,-0.390919,-1.189623,-0.318482,-0.596863,-0.412928,0.728493,-0.386765,-0.940386,-0.352889,0.376166,0.813223,-0.037047,-0.094392,0.219130
169,0.003539,-0.020375,0.088049,-0.019348,0.010333,0.117032,-0.251724,-0.458563,-0.178087,0.226422,0.662325,-0.166575,-0.025129,0.126792,-0.040660,-0.012428,0.020407,0.004450,-0.011672,0.005990,0.002302,-0.028386,0.001381,-0.009053,-0.059993,0.057551,-0.021364,0.006598,0.047236,0.094875,-0.130972,-0.027857,0.015264,0.227489,-0.426252,-1.169908,-0.242442,-0.546254,-0.362946,0.698443,-0.376479,-0.931812,-0.343163,0.336330,0.726488,-0.000292,-0.103033,0.195855
170,-0.003939,-0.023634,0.091500,-0.019157,0.001943,0.123712,-0.251148,-0.463357,-0.177320,0.225272,0.650245,-0.152284,-0.026677,0.127559,-0.036364,-0.016418,0.019179,-0.000460,-0.031737,-0.002952,0.003529,-0.021941,0.006598,-0.004756,-0.070120,0.067832,-0.017415,0.003222,0.131579,0.023942,-0.136551,-0.027374,0.016078,0.226210,-0.301429,-1.295277,-0.311257,-0.562701,-0.380373,0.705573,-0.351705,-0.785523,-0.251665,0.327104,0.652218,0.035350,-0.121935,0.171078
171,-0.010651,-0.026702,0.097253,-0.019540,-0.004235,0.116545,-0.249998,-0.466808,-0.175403,0.224313,0.634713,-0.137969,-0.029209,0.127750,-0.032682,-0.013963,0.033909,-0.001074,-0.047619,-0.023528,0.006291,-0.014576,0.009360,-0.004450,-0.081781,0.079123,-0.015961,0.000767,0.166212,0.042452,-0.138512,-0.026111,0.016689,0.224797,-0.334887,-1.353781,-0.358952,-0.571012,-0.400690,0.690947,-0.325447,-0.700064,-0.233197,0.316153,0.584176,0.083123,-0.138378,0.135939
172,-0.016979,-0.028811,0.104539,-0.019540,-0.012622,0.109041,-0.248080,-0.468726,-0.173677,0.222779,0.616688,-0.123628,-0.035114,0.127750,-0.030841,-0.009973,0.036671,0.000153,-0.045493,-0.034408,0.010280,-0.006905,0.009360,-0.009973,-0.094670,0.088908,-0.019572,-0.000767,0.134904,0.086645,-0.015278,-0.025193,0.017405,0.223926,-0.392255,-1.341325,-0.229245,-0.537117,-0.407892,0.645502,-0.206706,-0.731891,-0.232849,0.344917,0.444542,0.177974,-0.167369,-0.008634
173,-0.023114,-0.030921,0.110100,-0.019540,-0.021080,0.105244,-0.245779,-0.468917,-0.171759,0.220095,0.596171,-0.105066,-0.038339,0.127175,-0.029613,-0.010280,0.022248,0.000460,-0.034027,-0.024861,0.012121,0.000767,0.009053,-0.013349,-0.106638,0.098673,-0.024861,-0.003529,0.103666,0.095834,0.064496,-0.024371,0.018053,0.224216,-0.487274,-1.205471,-0.172986,-0.472133,-0.357552,0.594631,-0.270354,-0.710552,-0.226040,0.292928,0.360969,0.201303,-0.181429,0.043985
174,-0.029058,-0.033414,0.112209,-0.019540,-0.025227,0.101262,-0.243287,-0.468151,-0.169842,0.216643,0.572969,-0.086490,-0.041928,0.125833,-0.029613,-0.013656,0.008746,0.000460,-0.022991,-0.002558,0.014269,0.006291,0.010587,-0.019486,-0.120447,0.107615,-0.032241,-0.008132,0.072235,0.136071,-0.010352,-0.023915,0.018234,0.224610,-0.552042,-1.119345,-0.116214,-0.382552,-0.328119,0.523715,-0.250680,-0.647149,-0.195332,0.260259,0.230950,0.244586,-0.192022,0.026118
175,-0.035003,-0.036482,0.114511,-0.019540,-0.029319,0.102010,-0.239068,-0.466041,-0.167349,0.212233,0.544206,-0.065676,-0.050987,0.123532,-0.029920,-0.015497,0.014269,0.000767,-0.023749,0.004039,0.023476,0.012428,0.012735,-0.021941,-0.135790,0.116099,-0.045833,-0.013963,0.081383,0.173206,-0.114300,-0.023441,0.018898,0.223901,-0.526570,-1.021771,-0.103882,-0.270126,-0.259945,0.424620,-0.265449,-0.552754,-0.110601,0.253902,0.093776,0.264578,-0.186828,0.068902
176,-0.041139,-0.039550,0.118921,-0.019157,-0.037751,0.106468,-0.233316,-0.462782,-0.164281,0.207631,0.515252,-0.042752,-0.061484,0.119889,-0.030841,-0.014883,0.027465,0.001995,-0.029832,-0.017608,0.029613,0.018259,0.017338,-0.023169,-0.150213,0.125978,-0.053260,-0.019793,0.095926,0.193408,-0.089466,-0.022900,0.020262,0.222703,-0.580330,-0.880346,0.074528,-0.117459,-0.155659,0.295045,-0.193633,-0.513230,-0.088208,0.235004,-0.028672,0.292695,-0.162808,0.008028
177,-0.047658,-0.042426,0.125632,-0.018581,-0.041940,0.094741,-0.227179,-0.458371,-0.160446,0.202645,0.482846,-0.015554,-0.069532,0.114903,-0.033909,-0.013349,0.034523,0.003836,-0.039499,-0.041994,0.029920,0.024703,0.021021,-0.026237,-0.166478,0.134379,-0.060386,-0.026544,0.082176,0.215276,0.004429,-0.022482,0.022358,0.222201,-0.590375,-0.703364,0.234517,0.033617,0.043110,0.170654,-0.187269,-0.447232,-0.048975,0.207038,-0.108227,0.272790,-0.137757,0.012186
178,-0.054945,-0.044919,0.132535,-0.017239,-0.050437,0.085898,-0.221810,-0.452427,-0.155653,0.196701,0.447372,0.009470,-0.083735,0.109534,-0.036671,-0.010894,0.033295,0.007825,-0.044622,-0.045327,0.026851,0.032375,0.025317,-0.030534,-0.183355,0.138973,-0.060974,-0.026851,0.083190,0.192076,0.090940,-0.022053,0.024789,0.222646,-0.443680,-0.469841,0.370580,0.116979,0.294856,0.058257,-0.151395,-0.356338,0.016850,0.195338,-0.147743,0.196253,-0.175246,0.010104
179,-0.062807,-0.046453,0.138671,-0.014938,-0.058908,0.079005,-0.216633,-0.444757,-0.150091,0.190181,0.408255,0.036529,-0.094247,0.104357,-0.040047,-0.007518,0.031147,0.015190,-0.039928,-0.033757,0.025624,0.040354,0.028999,-0.033602,-0.200540,0.140575,-0.050214,-0.024396,0.118658,0.116657,0.073807,-0.021445,0.026424,0.223506,-0.194203,-0.261787,0.489224,0.137440,0.519698,-0.067382,-0.089112,-0.201802,0.119975,0.202870,-0.128482,0.090411,-0.221548,-0.004424
180,-0.071052,-0.047411,0.146341,-0.010720,-0.065217,0.075010,-0.212031,-0.435745,-0.143764,0.182895,0.366070,0.065558,-0.097981,0.098988,-0.041581,-0.002915,0.041888,0.023476,-0.026005,-0.021523,0.021634,0.048025,0.033602,-0.036978,-0.216191,0.136493,-0.033405,-0.028692,0.162058,0.067462,0.010515,-0.020090,0.027030,0.223907,0.043242,-0.026815,0.570881,0.161150,0.745911,-0.229187,-0.019147,-0.018004,0.242390,0.202040,-0.089513,-0.042438,-0.266535,-0.009025
181,-0.079106,-0.047411,0.156312,-0.004200,-0.069497,0.073334,-0.208005,-0.425006,-0.136285,0.174841,0.320817,0.088145,-0.105859,0.093236,-0.039740,0.000767,0.054163,0.031761,-0.009608,-0.024161,0.018873,0.056618,0.039126,-0.040047,-0.230614,0.122367,-0.015910,-0.028386,0.221741,0.039676,-0.067805,-0.018312,0.026941,0.223634,0.216773,0.139789,0.557221,0.308447,0.852295,-0.376471,0.053427,0.112068,0.420059,0.244846,-0.069491,-0.139223,-0.409738,-0.061343
182,-0.086392,-0.047028,0.168008,0.002895,-0.067542,0.060769,-0.203786,-0.412351,-0.127465,0.166596,0.278057,0.110672,-0.107816,0.087675,-0.034216,0.003222,0.062141,0.037285,0.006557,-0.065716,0.023169,0.065824,0.047105,-0.040967,-0.238592,0.100319,-0.000213,-0.027772,0.316360,0.047947,-0.107993,-0.015473,0.026756,0.222652,0.633195,0.273524,0.304745,0.547013,0.630133,-0.359293,0.125102,0.196905,0.777802,0.467792,-0.082500,-0.208577,-0.652983,-0.180360
183,-0.091761,-0.045877,0.180472,0.010373,-0.063744,0.035651,-0.197458,-0.397395,-0.116727,0.158734,0.225709,0.126962,-0.104254,0.082114,-0.023476,0.008439,0.061528,0.042808,0.024407,-0.133720,0.033909,0.078406,0.058152,-0.039126,-0.240740,0.070893,-0.003767,-0.028386,0.379790,0.025032,-0.103671,-0.011649,0.026561,0.221685,1.151863,0.324008,-0.156088,0.765778,0.120801,-0.112630,0.245742,0.234922,1.143337,0.762786,-0.085313,-0.312123,-0.865898,-0.345142
184,-0.094253,-0.042234,0.190252,0.020727,-0.061872,0.014566,-0.189980,-0.379945,-0.103113,0.152023,0.177387,0.135095,-0.107983,0.075595,-0.005984,0.023476,0.040967,0.051708,0.009277,-0.109584,0.038512,0.091908,0.074109,-0.028999,-0.241661,0.031000,-0.023948,-0.033909,0.645828,0.073623,-0.159542,-0.005795,0.027241,0.220324,1.122337,0.310228,-0.390870,0.882389,-0.164831,0.078334,0.306535,0.178158,1.039567,0.689493,-0.135153,-0.266691,-0.894761,-0.403407
185,-0.092144,-0.035331,0.195621,0.033575,-0.063966,0.002502,-0.181735,-0.359620,-0.085280,0.150681,0.129642,0.135177,-0.120123,0.067733,0.018259,0.039126,0.019793,0.071041,-0.026746,-0.026559,0.042502,0.105410,0.095283,0.005984,-0.236751,-0.011681,-0.071820,-0.043729,0.922331,-0.088222,-0.204316,0.002958,0.027269,0.218589,1.011989,0.287578,-0.386811,0.914447,-0.256357,0.088762,0.367659,0.039250,0.784573,0.482314,-0.196867,-0.229316,-0.781827,-0.357352
186,-0.084666,-0.025552,0.192936,0.050832,-0.070173,0.003022,-0.172339,-0.337185,-0.063229,0.154899,0.083621,0.131296,-0.137281,0.057570,0.046491,0.052322,-0.030841,0.092522,-0.045333,0.030912,0.049253,0.115230,0.116151,0.014269,-0.224476,-0.000986,-0.055242,-0.052935,1.027382,0.151749,-0.311783,0.013470,0.027117,0.215793,0.862900,0.257894,-0.380060,0.906696,-0.305277,0.051689,0.367166,0.186572,0.713603,0.290174,-0.077503,-0.005875,-0.682654,-0.302841
187,-0.072203,-0.016156,0.179897,0.069816,-0.084639,0.020806,-0.161601,-0.316859,-0.043287,0.146462,0.050065,0.139304,-0.133778,0.044914,0.067972,0.042502,-0.089760,0.112775,-0.063566,0.068325,0.053242,0.100500,0.087612,-0.071961,-0.144076,0.071530,0.066170,-0.064596,0.150376,-0.282102,-0.335300,0.021770,0.025642,0.213800,0.744820,0.259364,-0.381019,0.914506,-0.323013,0.082869,0.377082,-0.041708,0.955821,0.426466,-0.192352,-0.137334,-0.794314,-0.321942
188,-0.056862,-0.010595,0.139054,0.098962,-0.094809,0.033751,-0.154123,-0.296342,-0.033316,0.115782,0.029932,0.155347,-0.118676,0.030150,0.080861,0.021634,-0.244730,0.134870,-0.067329,0.085960,0.034216,0.104183,0.034523,-0.181514,-0.085157,0.068580,0.041011,-0.076257,-1.584980,-0.547259,1.250095,0.011622,0.015275,0.217185,-0.047526,0.806908,-0.249030,0.881916,-0.366830,0.069602,0.701375,-1.122518,1.187400,1.412618,-0.892468,-0.408302,-1.191495,-0.807787
189,-0.038262,-0.006952,0.087665,0.126958,-0.108998,0.054738,-0.144727,-0.274866,-0.031015,0.076665,0.015550,0.161409,-0.126644,0.015001,0.097738,0.019486,-0.242888,0.143462,-0.068808,0.089976,0.051094,0.108786,0.005677,-0.180901,-0.069813,0.014910,-0.062239,-0.074416,-0.527653,1.182995,0.489345,0.004664,0.021715,0.226111,0.406008,0.570760,-0.401119,1.125989,-0.347294,-0.038364,0.075430,1.056342,2.496761,1.105782,0.075370,0.546524,-1.240667,-0.439310
190,-0.017170,0.000143,0.050466,0.156679,-0.120959,0.068898,-0.132646,-0.253198,-0.030056,0.057106,0.001552,0.159500,-0.143597,0.000428,0.108479,0.048332,-0.154816,0.149907,-0.070782,0.068929,0.063983,0.106331,0.006598,-0.054163,-0.071961,-0.026173,-0.098627,-0.072575,0.180487,0.429518,0.034162,0.008564,0.035294,0.229270,1.000473,0.359594,-0.330211,1.210442,-0.529331,0.015457,0.660799,0.680024,1.517884,0.718127,0.098351,0.644357,-0.978318,-0.816143
191,0.005073,0.014524,0.033783,0.187359,-0.132997,0.074470,-0.120950,-0.234407,-0.027372,0.059216,-0.013021,0.151645,-0.165848,-0.014336,0.110627,0.078406,-0.065210,0.156351,-0.070175,0.017484,0.050480,0.089453,0.017645,0.027465,-0.072882,-0.043614,-0.107229,-0.072268,0.279347,0.463500,-0.135955,0.011518,0.037094,0.229029,1.176050,0.304266,-0.511631,0.991683,-0.427678,0.039820,0.467060,0.806925,1.204558,0.251348,0.253584,0.697622,-0.743230,-0.442172
192,0.025591,0.031207,0.018444,0.219573,-0.147418,0.074469,-0.113088,-0.218108,-0.022961,0.063051,-0.024717,0.147772,-0.180375,-0.029101,0.098966,0.084850,-0.086077,0.164329,-0.068688,-0.032974,0.036671,0.079940,0.022555,0.008132,-0.059993,-0.006909,-0.044830,-0.078406,-0.394124,0.211636,-0.461668,0.005149,0.039442,0.225714,0.935273,0.106765,-0.521153,1.070109,-0.442643,-0.007477,0.479651,0.457234,1.878938,0.729657,0.025743,0.538656,-1.105994,-0.527799
193,0.044382,0.047505,-0.004758,0.253896,-0.157783,0.056932,-0.104268,-0.202192,-0.019318,0.057298,-0.034113,0.151719,-0.179544,-0.046359,0.092215,0.080247,-0.130574,0.175070,-0.069778,-0.076770,0.049560,0.080861,0.017031,-0.044650,-0.035137,0.040391,0.036608,-0.089453,0.121313,-0.104268,-0.686996,0.002509,0.038366,0.219388,1.020745,0.066458,-0.683506,0.952236,-0.290280,-0.019537,0.130165,-0.119810,1.822792,0.436820,-0.327259,0.287467,-1.028283,-0.054320
194,0.062790,0.062462,-0.032754,0.290329,-0.172393,0.041064,-0.093146,-0.185510,-0.015483,0.045985,-0.039099,0.165577,-0.157149,-0.064383,0.093442,0.073189,-0.138245,0.185197,-0.069671,-0.102342,0.058459,0.084236,0.020714,-0.051708,-0.022248,0.061153,0.102979,-0.091908,0.687080,0.065979,-0.445347,0.008059,0.039051,0.214156,1.087814,0.275567,-0.511364,1.035288,-0.443470,-0.012273,0.451311,0.575126,1.074743,0.141107,0.168082,0.709580,-0.689012,-0.416768
195,0.082157,0.076651,-0.058065,0.327912,-0.184759,0.019492,-0.081833,-0.169020,-0.009731,0.040424,-0.042550,0.171459,-0.138744,-0.082408,0.097738,0.070120,-0.120140,0.189493,-0.065421,-0.109687,0.051094,0.081474,0.032375,-0.015804,-0.016724,0.029046,0.100857,-0.087305,0.967522,-0.083871,-0.393191,0.017458,0.039841,0.209649,1.133000,0.360541,-0.433601,0.970468,-0.415475,-0.030039,0.513300,0.334867,0.301948,-0.110714,-0.013176,0.631873,-0.362834,-0.322684
196,0.102482,0.089690,-0.080308,0.366070,-0.196878,0.000784,-0.073779,-0.153872,-0.002827,0.038890,-0.045810,0.169448,-0.129776,-0.097364,0.105410,0.061835,-0.110013,0.188879,-0.056775,-0.100866,0.035137,0.073189,0.034830,-0.010280,-0.016418,-0.034778,-0.003263,-0.069506,0.421318,-0.249358,-0.250788,0.023474,0.039342,0.206689,0.997638,0.280546,-0.465352,0.996321,-0.411278,-0.035349,0.463590,0.177140,0.475933,-0.104868,0.007719,0.518907,-0.429108,-0.259725
197,0.124342,0.101196,-0.103126,0.402503,-0.204803,-0.017122,-0.066876,-0.140257,0.003500,0.032754,-0.049261,0.157500,-0.144347,-0.109637,0.111241,0.056004,-0.112468,0.179366,-0.047578,-0.068977,0.037592,0.066438,0.028386,-0.039126,-0.017645,-0.064963,-0.087150,-0.059993,0.241933,-0.221843,-0.203335,0.026015,0.037945,0.204276,0.953340,0.222476,-0.464536,1.050420,-0.367067,-0.081595,0.382736,0.176340,0.956065,0.003321,-0.070658,0.490949,-0.582544,-0.257723
198,0.147735,0.111742,-0.125753,0.437018,-0.210722,-0.028335,-0.056905,-0.127985,0.006760,0.018564,-0.052521,0.145592,-0.162036,-0.121717,0.117685,0.052015,-0.111548,0.169239,-0.037480,-0.031095,0.056618,0.058766,0.010894,-0.081781,-0.014576,-0.051365,-0.063921,-0.060607,0.304403,-0.184197,-0.119520,0.029427,0.035234,0.202366,1.029874,0.289156,-0.437393,1.126209,-0.349237,-0.064387,0.362106,0.095356,0.952563,-0.055101,-0.195208,0.464565,-0.545741,-0.263351
199,0.171321,0.121521,-0.145312,0.466164,-0.218593,-0.024771,-0.044250,-0.117056,0.006377,0.000924,-0.054631,0.139598,-0.165265,-0.132455,0.119526,0.048025,-0.091908,0.159420,-0.025606,0.003656,0.062448,0.053856,-0.004143,-0.086998,-0.008439,-0.020909,0.007238,-0.049560,0.089061,-0.435206,-0.025086,0.031794,0.030972,0.201703,1.034503,0.351402,-0.353206,1.271817,-0.413240,-0.057684,0.524814,-0.066446,0.780894,0.106964,-0.384659,0.320551,-0.411565,-0.426225
200,0.195098,0.130150,-0.160652,0.496652,-0.220645,-0.022564,-0.031978,-0.106509,0.006185,-0.013650,-0.055589,0.137521,-0.154098,-0.139933,0.119526,0.041274,-0.073803,0.148065,-0.013168,0.026153,0.060607,0.052935,0.000460,-0.065824,-0.003836,-0.017268,0.056193,-0.032682,0.016807,-0.186849,0.257995,0.031448,0.025852,0.202663,1.006917,0.422770,-0.375309,1.272714,-0.395468,-0.041042,0.503192,0.170381,0.847522,0.149990,-0.375171,0.229331,-0.457162,-0.421291
201,0.219067,0.137053,-0.174266,0.527140,-0.220716,-0.018070,-0.019897,-0.096346,0.006377,-0.024196,-0.055973,0.129288,-0.143262,-0.145686,0.118913,0.031454,-0.065210,0.135484,-0.003823,0.035003,0.061221,0.050173,0.001381,-0.044957,-0.001688,-0.041442,0.067328,-0.028692,-0.028171,-0.106852,0.330653,0.031043,0.023883,0.205843,1.003492,0.389745,-0.401624,1.270931,-0.409949,-0.058325,0.544398,0.293534,1.059521,0.269626,-0.309806,0.288598,-0.618490,-0.503250
202,0.242652,0.142038,-0.185771,0.553027,-0.220749,-0.011034,-0.007817,-0.086951,0.006377,-0.029757,-0.056356,0.117097,-0.134908,-0.152205,0.117685,0.021941,-0.053242,0.127505,0.004405,0.029148,0.057538,0.045263,0.000153,-0.023783,-0.002302,-0.079556,0.008576,-0.033602,-0.206680,-0.213499,0.197111,0.030719,0.023371,0.208588,1.071117,0.331542,-0.472930,1.235477,-0.357572,-0.042276,0.434657,0.171825,1.312283,0.289734,-0.375628,0.178012,-0.760181,-0.388473
203,0.265854,0.145489,-0.195167,0.577187,-0.218786,-0.007564,0.002346,-0.078705,0.006377,-0.032825,-0.056931,0.096962,-0.147743,-0.159683,0.115844,0.016111,-0.044957,0.117685,0.010580,0.015619,0.046491,0.040047,0.000153,-0.013963,-0.003222,-0.100885,-0.071508,-0.038819,-0.287035,-0.229250,0.117816,0.028536,0.022416,0.210113,1.079505,0.330498,-0.456664,1.286769,-0.362204,-0.024996,0.466257,0.128031,1.322545,0.364404,-0.470630,0.039842,-0.772320,-0.440869
204,0.288289,0.148174,-0.203028,0.599431,-0.218777,-0.002674,0.011166,-0.070843,0.006377,-0.035893,-0.056356,0.083039,-0.161129,-0.167737,0.110934,0.012428,-0.034830,0.108786,0.012513,-0.001079,0.044343,0.039433,-0.000460,-0.017031,0.005063,-0.073840,-0.078123,-0.038512,-0.246946,-0.339424,0.276098,0.026612,0.019280,0.211904,1.073940,0.289547,-0.453740,1.257739,-0.348011,-0.017572,0.491985,-0.100535,1.156798,0.421822,-0.627692,-0.128440,-0.776416,-0.450859
205,0.309765,0.150091,-0.208206,0.617839,-0.214812,-0.007853,0.019795,-0.062982,0.006377,-0.042412,-0.053672,0.077088,-0.163552,-0.174257,0.106331,0.009053,-0.022862,0.099887,0.013376,-0.015784,0.042195,0.040354,0.001074,-0.036671,0.016724,-0.023765,0.001399,-0.030534,-0.348765,-0.359158,0.313109,0.023688,0.015704,0.214896,0.995755,0.277503,-0.501767,1.234400,-0.307435,-0.014447,0.413424,-0.083570,1.318548,0.494401,-0.678695,-0.265674,-0.859422,-0.380682
206,0.330474,0.151625,-0.211657,0.635863,-0.212804,-0.011231,0.028616,-0.054737,0.006569,-0.050466,-0.050220,0.072811,-0.160047,-0.179625,0.102648,0.008132,-0.015190,0.086077,0.014182,-0.023737,0.045877,0.040967,0.000460,-0.037899,0.015804,-0.014752,0.038814,-0.027158,-0.311410,-0.166317,0.347789,0.019386,0.012208,0.218309,0.937223,0.303679,-0.491541,1.234366,-0.318083,-0.018670,0.463072,0.161505,1.390912,0.603978,-0.608440,-0.253681,-0.898798,-0.492621
207,0.350416,0.153159,-0.212808,0.651011,-0.208809,-0.018195,0.038395,-0.046875,0.006569,-0.055451,-0.047727,0.066594,-0.153412,-0.185761,0.097738,0.006598,0.001995,0.071961,0.015560,-0.023797,0.049560,0.039433,0.000153,-0.019179,0.011508,-0.044401,0.018048,-0.031454,-0.054438,-0.192001,0.006164,0.018742,0.011965,0.220081,1.134972,0.323679,-0.542039,1.180422,-0.284156,0.007433,0.311375,0.138568,1.301693,0.359038,-0.567060,-0.354735,-0.836915,-0.256693
208,0.369207,0.154118,-0.210699,0.663859,-0.206766,-0.019818,0.047023,-0.039588,0.006377,-0.056602,-0.045810,0.052334,-0.161237,-0.191706,0.092829,0.004143,0.009360,0.060914,0.019241,-0.016936,0.039126,0.035750,0.000153,-0.000153,0.007825,-0.072414,-0.039149,-0.028692,-0.028914,-0.295634,-0.095089,0.019076,0.010294,0.219400,1.081111,0.270846,-0.517571,1.186955,-0.308759,0.019490,0.408913,-0.033640,1.081388,0.391702,-0.640664,-0.469886,-0.790766,-0.326055
209,0.386848,0.154693,-0.210890,0.674980,-0.204723,-0.018889,0.053543,-0.032685,0.006569,-0.057177,-0.044276,0.040438,-0.169503,-0.197650,0.086077,0.003222,-0.004450,0.045263,0.021453,-0.005438,0.029306,0.033909,0.000153,-0.005677,0.008132,-0.063661,-0.041999,-0.028692,0.004722,-0.135657,-0.007986,0.019505,0.009201,0.218699,1.043396,0.301712,-0.515178,1.139579,-0.268552,0.028144,0.339242,0.108043,1.052903,0.355643,-0.617177,-0.518534,-0.755027,-0.281994
210,0.403339,0.155461,-0.211082,0.681500,-0.198771,-0.021013,0.059487,-0.025974,0.006569,-0.060053,-0.041975,0.032295,-0.170284,-0.202636,0.082088,0.003529,0.002302,0.033602,0.024112,0.008801,0.030534,0.034216,0.000153,-0.016724,0.011201,-0.034920,0.011767,-0.022862,-0.017594,-0.150035,0.038981,0.019534,0.008093,0.218952,0.997642,0.262518,-0.524205,1.111886,-0.259671,0.016766,0.346059,0.059064,1.135503,0.445490,-0.651973,-0.542673,-0.774986,-0.310692
211,0.419062,0.156228,-0.210315,0.686102,-0.194788,-0.015801,0.066007,-0.019071,0.006377,-0.064655,-0.040057,0.027986,-0.162775,-0.206279,0.077485,0.005677,0.003529,0.018259,0.027501,0.022329,0.032375,0.034523,0.000153,-0.023783,0.009666,-0.019032,0.042829,-0.016724,0.053424,-0.069651,0.060730,0.019476,0.006709,0.219298,1.018832,0.316031,-0.485128,1.087590,-0.246297,0.024412,0.331138,0.191427,1.099667,0.408303,-0.624544,-0.567583,-0.756696,-0.322969
212,0.433636,0.157570,-0.209932,0.687636,-0.188827,-0.011018,0.072718,-0.012359,0.006377,-0.068682,-0.038715,0.021546,-0.158298,-0.209347,0.071654,0.005677,0.000153,0.002915,0.029856,0.034178,0.034523,0.033602,0.000153,-0.015190,0.007211,-0.024930,0.025244,-0.015497,0.177731,0.032252,0.100284,0.021813,0.006663,0.220316,1.064520,0.374563,-0.416974,1.071393,-0.249425,0.038076,0.352270,0.307274,0.954613,0.315011,-0.581268,-0.566225,-0.700124,-0.362217
213,0.446866,0.158146,-0.211466,0.686869,-0.182819,-0.003652,0.080005,-0.005840,0.006569,-0.070407,-0.037181,0.015468,-0.158684,-0.211840,0.063983,0.002915,-0.010587,-0.007211,0.032455,0.040054,0.036671,0.032375,0.000460,-0.008746,0.005677,-0.042702,-0.014701,-0.012121,0.061151,-0.041917,0.104110,0.023222,0.006327,0.221087,1.024522,0.318078,-0.411668,1.035866,-0.231497,0.040984,0.355545,0.141350,0.950098,0.376364,-0.664974,-0.627504,-0.705729,-0.355328
214,0.458563,0.158529,-0.214150,0.683993,-0.176772,0.004524,0.086141,0.000488,0.006377,-0.073284,-0.036414,0.005418,-0.166360,-0.213565,0.056925,0.000767,-0.013042,-0.016724,0.034382,0.038802,0.027465,0.031761,0.000153,-0.016111,0.004143,-0.047178,-0.026024,-0.007211,-0.045100,0.062081,0.200674,0.023618,0.006707,0.222764,0.967183,0.345162,-0.393011,1.015163,-0.196001,0.043767,0.317476,0.302876,1.101301,0.432819,-0.641026,-0.613782,-0.718539,-0.380043
